; G-Code generated by Simplify3D(R) Version 3.0.2
; Feb 18, 2016 at 3:07:28 PM
; Settings Summary
;   processName,new-normalish
;   applyToModels,nemaMount_openbeam_NEMA11
;   profileName,DeltaMaker 3D Printer (modified)
;   profileVersion,2015-05-01 08:00:00
;   baseProfile,
;   printMaterial,PLA
;   printQuality,Medium
;   printExtruders,
;   extruderName,Primary Extruder
;   extruderToolheadNumber,0
;   extruderDiameter,0.35
;   extruderAutoWidth,0
;   extruderWidth,0.35
;   extrusionMultiplier,0.9
;   extruderUseRetract,1
;   extruderRetractionDistance,8.4
;   extruderExtraRestartDistance,-0.1
;   extruderRetractionZLift,0.1
;   extruderRetractionSpeed,3600
;   extruderUseCoasting,0
;   extruderCoastingDistance,0.2
;   extruderUseWipe,0
;   extruderWipeDistance,5
;   primaryExtruder,0
;   layerHeight,0.25
;   topSolidLayers,3
;   bottomSolidLayers,3
;   perimeterOutlines,2
;   printPerimetersInsideOut,1
;   startPointOption,2
;   startPointOriginX,0
;   startPointOriginY,0
;   startPointOriginZ,300
;   sequentialIslands,0
;   spiralVaseMode,0
;   firstLayerHeightPercentage,90
;   firstLayerWidthPercentage,100
;   firstLayerUnderspeed,0.5
;   useRaft,0
;   raftExtruder,0
;   raftLayers,3
;   raftOffset,3
;   raftSeparationDistance,0.14
;   raftInfill,85
;   disableRaftBaseLayers,0
;   useSkirt,1
;   skirtExtruder,0
;   skirtLayers,1
;   skirtOutlines,3
;   skirtOffset,4
;   usePrimePillar,0
;   primePillarExtruder,999
;   primePillarWidth,12
;   primePillarLocation,7
;   primePillarSpeedMultiplier,1
;   useOozeShield,0
;   oozeShieldExtruder,999
;   oozeShieldOffset,2
;   oozeShieldOutlines,1
;   oozeShieldSidewallShape,1
;   oozeShieldSidewallAngle,30
;   oozeShieldSpeedMultiplier,1
;   infillExtruder,0
;   internalInfillPattern,Rectilinear
;   externalInfillPattern,Rectilinear
;   infillPercentage,20
;   outlineOverlapPercentage,15
;   infillExtrusionWidthPercentage,100
;   minInfillLength,5
;   infillLayerInterval,1
;   infillAngles,45,-45
;   overlapInfillAngles,0
;   generateSupport,1
;   supportExtruder,0
;   supportInfillPercentage,30
;   supportExtraInflation,0
;   denseSupportLayers,0
;   denseSupportInfillPercentage,70
;   supportLayerInterval,1
;   supportHorizontalPartOffset,0.3
;   supportUpperSeparationLayers,1
;   supportLowerSeparationLayers,1
;   supportType,0
;   supportGridSpacing,4
;   maxOverhangAngle,45
;   supportAngles,0
;   temperatureName,Primary Extruder
;   temperatureNumber,0
;   temperatureSetpointCount,1
;   temperatureSetpointLayers,1
;   temperatureSetpointTemperatures,225
;   temperatureStabilizeAtStartup,1
;   temperatureHeatedBed,0
;   temperatureRelayBetweenLayers,0
;   temperatureRelayBetweenLoops,0
;   fanLayers,1,2
;   fanSpeeds,0,100
;   blipFanToFullPower,0
;   adjustSpeedForCooling,1
;   minSpeedLayerTime,15
;   minCoolingSpeedSlowdown,20
;   increaseFanForCooling,0
;   minFanLayerTime,45
;   maxCoolingFanSpeed,100
;   increaseFanForBridging,0
;   bridgingFanSpeed,100
;   use5D,1
;   relativeEdistances,0
;   allowEaxisZeroing,1
;   independentExtruderAxes,0
;   includeM10123,0
;   stickySupport,1
;   applyToolheadOffsets,0
;   gcodeXoffset,0
;   gcodeYoffset,0
;   gcodeZoffset,0
;   overrideMachineDefinition,1
;   machineTypeOverride,1
;   strokeXoverride,169.6
;   strokeYoverride,169.6
;   strokeZoverride,260
;   originOffsetXoverride,84.8
;   originOffsetYoverride,84.8
;   originOffsetZoverride,0
;   homeXdirOverride,0
;   homeYdirOverride,0
;   homeZdirOverride,1
;   flipXoverride,1
;   flipYoverride,-1
;   flipZoverride,1
;   toolheadOffsets,0,0|0,0|0,0|0,0|0,0|0,0
;   overrideFirmwareConfiguration,1
;   firmwareTypeOverride,RepRap (Marlin/Repetier/Sprinter)
;   GPXconfigOverride,r2
;   baudRateOverride,250000
;   overridePrinterModels,1
;   printerModelsOverride
;   startingGcode,G28 ; home all axes
;   layerChangeGcode,
;   retractionGcode,
;   toolChangeGcode,
;   endingGcode,G28,M104 S0 ; turn off extruder,M140 S0 ; turn off bed,M84 ; disable motors
;   createX3G,0
;   celebration,0
;   celebrationSong,Random Song
;   createMB5G,0
;   postProcessing,
;   defaultSpeed,3600
;   outlineUnderspeed,0.5
;   solidInfillUnderspeed,0.8
;   supportUnderspeed,0.8
;   rapidXYspeed,4800
;   rapidZspeed,1000
;   minBridgingArea,50
;   bridgingExtraInflation,0
;   bridgingExtrusionMultiplier,1
;   bridgingSpeedMultiplier,1
;   filamentDiameter,1.75
;   filamentPricePerKg,46
;   filamentDensity,1.25
;   useMinPrintHeight,0
;   minPrintHeight,0
;   useMaxPrintHeight,0
;   maxPrintHeight,0
;   useDiaphragm,0
;   diaphragmLayerInterval,20
;   robustSlicing,1
;   mergeAllIntoSolid,0
;   onlyRetractWhenCrossingOutline,1
;   retractBetweenLayers,1
;   useRetractionMinTravel,0
;   retractionMinTravel,3
;   retractWhileWiping,0
;   onlyWipeOutlines,1
;   avoidCrossingOutline,0
;   maxMovementDetourFactor,3
;   toolChangeRetractionDistance,12
;   toolChangeExtraRestartDistance,-0.5
;   toolChangeRetractionSpeed,600
;   allowThinWallGapFill,1
;   thinWallAllowedOverlapPercentage,10
;   horizontalSizeCompensation,0
G90
M82
M106 S0
M104 S225 T0
M109 S225 T0
G28 ; home all axes
G92 E0
G1 E-8.4000 F3600
G1 Z0.325 F1000
; layer 1, Z = 0.225
T0
; tool H0.250 W0.350
; skirt
G1 X24.875 Y-34.331 F4800
G1 Z0.225 F1000
G1 E-0.1000 F1080
G92 E0
G1 X24.875 Y34.331 E2.2480 F1800
G1 X24.742 Y34.653 E2.2594
G1 X22.152 Y37.242 E2.3793
G1 X21.831 Y37.375 E2.3907
G1 X-21.831 Y37.375 E3.8202
G1 X-22.152 Y37.242 E3.8316
G1 X-24.742 Y34.653 E3.9515
G1 X-24.875 Y34.331 E3.9629
G1 X-24.875 Y-34.331 E6.2109
G1 X-24.742 Y-34.653 E6.2223
G1 X-22.152 Y-37.242 E6.3422
G1 X-21.831 Y-37.375 E6.3536
G1 X21.831 Y-37.375 E7.7831
G1 X22.152 Y-37.242 E7.7945
G1 X24.742 Y-34.653 E7.9144
G1 X24.875 Y-34.331 E7.9258
G1 X24.525 Y-34.261 F4800
G92 E0
G1 X24.525 Y34.261 E2.2435 F1800
G1 X24.445 Y34.454 E2.2503
G1 X21.954 Y36.945 E2.3656
G1 X21.761 Y37.025 E2.3725
G1 X-21.761 Y37.025 E3.7974
G1 X-21.954 Y36.945 E3.8043
G1 X-24.445 Y34.454 E3.9196
G1 X-24.525 Y34.261 E3.9264
G1 X-24.525 Y-34.261 E6.1699
G1 X-24.445 Y-34.454 E6.1767
G1 X-21.954 Y-36.945 E6.2920
G1 X-21.761 Y-37.025 E6.2989
G1 X21.761 Y-37.025 E7.7238
G1 X21.954 Y-36.945 E7.7307
G1 X24.445 Y-34.454 E7.8460
G1 X24.525 Y-34.261 E7.8528
G1 X24.175 Y-34.192 F4800
G92 E0
G1 X24.175 Y34.192 E2.2389 F1800
G1 X24.148 Y34.256 E2.2412
G1 X21.756 Y36.648 E2.3520
G1 X21.692 Y36.675 E2.3542
G1 X-21.692 Y36.675 E3.7746
G1 X-21.756 Y36.648 E3.7769
G1 X-24.148 Y34.256 E3.8877
G1 X-24.175 Y34.192 E3.8900
G1 X-24.175 Y-34.192 E6.1289
G1 X-24.148 Y-34.256 E6.1311
G1 X-21.756 Y-36.648 E6.2419
G1 X-21.692 Y-36.675 E6.2442
G1 X21.692 Y-36.675 E7.6646
G1 X21.756 Y-36.648 E7.6669
G1 X24.148 Y-34.256 E7.7776
G1 X24.175 Y-34.192 E7.7799
G92 E0
G1 E-8.4000 F3600
G1 Z0.325 F1000
; inner perimeter
G1 X19.475 Y-31.975 F4800
G1 Z0.225 F1000
G1 E-0.1000 F3600
G92 E0
G1 X19.475 Y31.975 E2.0938 F1350
G1 X-19.475 Y31.975 E3.3690
G1 X-19.475 Y-31.975 E5.4627
G1 X19.475 Y-31.975 E6.7380
; outer perimeter
G1 X19.825 Y-32.325 F4800
G92 E0
G1 X19.825 Y32.325 E2.1167 F900
G1 X-19.825 Y32.325 E3.4148
G1 X-19.825 Y-32.325 E5.5315
G1 X19.825 Y-32.325 E6.8297
; inner perimeter
G1 X9.141 Y-21.192 F4800
G92 E0
G1 X8.857 Y-21.507 E0.0139 F1350
G1 X8.514 Y-21.756 E0.0278
G1 X8.127 Y-21.929 E0.0416
G1 X7.712 Y-22.017 E0.0555
G1 X7.288 Y-22.017 E0.0694
G1 X6.873 Y-21.929 E0.0833
G1 X6.486 Y-21.756 E0.0972
G1 X6.143 Y-21.507 E0.1110
G1 X5.859 Y-21.192 E0.1249
G1 X5.647 Y-20.825 E0.1388
G1 X5.516 Y-20.422 E0.1527
G1 X5.472 Y-20.000 E0.1666
G1 X5.516 Y-19.578 E0.1804
G1 X5.647 Y-19.175 E0.1943
G1 X5.859 Y-18.808 E0.2082
G1 X6.143 Y-18.493 E0.2221
G1 X6.486 Y-18.244 E0.2360
G1 X6.873 Y-18.071 E0.2498
G1 X7.288 Y-17.983 E0.2637
G1 X7.712 Y-17.983 E0.2776
G1 X8.127 Y-18.071 E0.2915
G1 X8.514 Y-18.244 E0.3054
G1 X8.857 Y-18.493 E0.3192
G1 X9.141 Y-18.808 E0.3331
G1 X9.353 Y-19.175 E0.3470
G1 X9.484 Y-19.578 E0.3609
G1 X9.528 Y-20.000 E0.3748
G1 X9.484 Y-20.422 E0.3886
G1 X9.353 Y-20.825 E0.4025
G1 X9.141 Y-21.192 E0.4164
; outer perimeter
G1 X8.856 Y-20.985 F4800
G92 E0
G1 X8.621 Y-21.245 E0.0115 F900
G1 X8.338 Y-21.451 E0.0229
G1 X8.018 Y-21.594 E0.0344
G1 X7.675 Y-21.667 E0.0459
G1 X7.325 Y-21.667 E0.0574
G1 X6.982 Y-21.594 E0.0688
G1 X6.662 Y-21.451 E0.0803
G1 X6.379 Y-21.245 E0.0918
G1 X6.144 Y-20.985 E0.1032
G1 X5.969 Y-20.682 E0.1147
G1 X5.861 Y-20.348 E0.1262
G1 X5.824 Y-20.000 E0.1377
G1 X5.861 Y-19.652 E0.1491
G1 X5.969 Y-19.318 E0.1606
G1 X6.144 Y-19.015 E0.1721
G1 X6.379 Y-18.755 E0.1835
G1 X6.662 Y-18.549 E0.1950
G1 X6.982 Y-18.406 E0.2065
G1 X7.325 Y-18.333 E0.2180
G1 X7.675 Y-18.333 E0.2294
G1 X8.018 Y-18.406 E0.2409
G1 X8.338 Y-18.549 E0.2524
G1 X8.621 Y-18.755 E0.2638
G1 X8.856 Y-19.015 E0.2753
G1 X9.031 Y-19.318 E0.2868
G1 X9.139 Y-19.651 E0.2983
G1 X9.176 Y-20.000 E0.3097
G1 X9.139 Y-20.348 E0.3212
G1 X9.031 Y-20.682 E0.3327
G1 X8.856 Y-20.985 E0.3441
G92 E0
G1 E-8.4000 F3600
G1 Z0.325 F1000
; inner perimeter
G1 X-5.647 Y-20.825 F4800
G1 Z0.225 F1000
G1 E-0.1000 F3600
G92 E0
G1 X-5.859 Y-21.192 E0.0139 F1350
G1 X-6.143 Y-21.507 E0.0278
G1 X-6.486 Y-21.756 E0.0416
G1 X-6.873 Y-21.929 E0.0555
G1 X-7.288 Y-22.017 E0.0694
G1 X-7.712 Y-22.017 E0.0833
G1 X-8.127 Y-21.929 E0.0972
G1 X-8.514 Y-21.756 E0.1110
G1 X-8.857 Y-21.507 E0.1249
G1 X-9.141 Y-21.192 E0.1388
G1 X-9.353 Y-20.825 E0.1527
G1 X-9.484 Y-20.422 E0.1666
G1 X-9.528 Y-20.000 E0.1804
G1 X-9.484 Y-19.578 E0.1943
G1 X-9.353 Y-19.175 E0.2082
G1 X-9.141 Y-18.808 E0.2221
G1 X-8.857 Y-18.493 E0.2360
G1 X-8.514 Y-18.244 E0.2498
G1 X-8.127 Y-18.071 E0.2637
G1 X-7.712 Y-17.983 E0.2776
G1 X-7.288 Y-17.983 E0.2915
G1 X-6.873 Y-18.071 E0.3054
G1 X-6.486 Y-18.244 E0.3192
G1 X-6.143 Y-18.493 E0.3331
G1 X-5.859 Y-18.808 E0.3470
G1 X-5.647 Y-19.175 E0.3609
G1 X-5.516 Y-19.578 E0.3748
G1 X-5.472 Y-20.000 E0.3886
G1 X-5.516 Y-20.422 E0.4025
G1 X-5.647 Y-20.825 E0.4164
; outer perimeter
G1 X-5.969 Y-20.682 F4800
G92 E0
G1 X-6.144 Y-20.985 E0.0115 F900
G1 X-6.379 Y-21.245 E0.0229
G1 X-6.662 Y-21.451 E0.0344
G1 X-6.982 Y-21.594 E0.0459
G1 X-7.325 Y-21.667 E0.0574
G1 X-7.675 Y-21.667 E0.0688
G1 X-8.018 Y-21.594 E0.0803
G1 X-8.338 Y-21.451 E0.0918
G1 X-8.621 Y-21.245 E0.1032
G1 X-8.856 Y-20.985 E0.1147
G1 X-9.031 Y-20.682 E0.1262
G1 X-9.139 Y-20.348 E0.1377
G1 X-9.176 Y-20.000 E0.1491
G1 X-9.139 Y-19.651 E0.1606
G1 X-9.031 Y-19.318 E0.1721
G1 X-8.856 Y-19.015 E0.1835
G1 X-8.621 Y-18.755 E0.1950
G1 X-8.338 Y-18.549 E0.2065
G1 X-8.018 Y-18.406 E0.2180
G1 X-7.675 Y-18.333 E0.2294
G1 X-7.325 Y-18.333 E0.2409
G1 X-6.982 Y-18.406 E0.2524
G1 X-6.662 Y-18.549 E0.2638
G1 X-6.379 Y-18.755 E0.2753
G1 X-6.144 Y-19.015 E0.2868
G1 X-5.969 Y-19.318 E0.2983
G1 X-5.861 Y-19.652 E0.3097
G1 X-5.824 Y-20.000 E0.3212
G1 X-5.861 Y-20.348 E0.3327
G1 X-5.969 Y-20.682 E0.3441
; inner perimeter
G1 X-6.486 Y15.744 F4800
G92 E0
G1 X-6.873 Y15.571 E0.0139 F1350
G1 X-7.288 Y15.483 E0.0278
G1 X-7.712 Y15.483 E0.0416
G1 X-8.127 Y15.571 E0.0555
G1 X-8.514 Y15.744 E0.0694
G1 X-8.857 Y15.993 E0.0833
G1 X-9.141 Y16.308 E0.0972
G1 X-9.353 Y16.675 E0.1110
G1 X-9.484 Y17.078 E0.1249
G1 X-9.528 Y17.500 E0.1388
G1 X-9.484 Y17.922 E0.1527
G1 X-9.353 Y18.325 E0.1666
G1 X-9.141 Y18.692 E0.1804
G1 X-8.857 Y19.007 E0.1943
G1 X-8.514 Y19.256 E0.2082
G1 X-8.127 Y19.429 E0.2221
G1 X-7.712 Y19.517 E0.2360
G1 X-7.288 Y19.517 E0.2498
G1 X-6.873 Y19.429 E0.2637
G1 X-6.486 Y19.256 E0.2776
G1 X-6.143 Y19.007 E0.2915
G1 X-5.859 Y18.692 E0.3054
G1 X-5.647 Y18.325 E0.3192
G1 X-5.516 Y17.922 E0.3331
G1 X-5.472 Y17.500 E0.3470
G1 X-5.516 Y17.078 E0.3609
G1 X-5.647 Y16.675 E0.3748
G1 X-5.859 Y16.308 E0.3886
G1 X-6.143 Y15.993 E0.4025
G1 X-6.486 Y15.744 E0.4164
; outer perimeter
G1 X-6.662 Y16.049 F4800
G92 E0
G1 X-6.982 Y15.906 E0.0115 F900
G1 X-7.325 Y15.833 E0.0229
G1 X-7.675 Y15.833 E0.0344
G1 X-8.018 Y15.906 E0.0459
G1 X-8.338 Y16.049 E0.0574
G1 X-8.621 Y16.255 E0.0688
G1 X-8.856 Y16.515 E0.0803
G1 X-9.031 Y16.818 E0.0918
G1 X-9.139 Y17.151 E0.1032
G1 X-9.176 Y17.500 E0.1147
G1 X-9.139 Y17.848 E0.1262
G1 X-9.031 Y18.182 E0.1377
G1 X-8.856 Y18.485 E0.1491
G1 X-8.621 Y18.745 E0.1606
G1 X-8.338 Y18.951 E0.1721
G1 X-8.018 Y19.094 E0.1835
G1 X-7.675 Y19.167 E0.1950
G1 X-7.325 Y19.167 E0.2065
G1 X-6.982 Y19.094 E0.2180
G1 X-6.662 Y18.951 E0.2294
G1 X-6.379 Y18.745 E0.2409
G1 X-6.144 Y18.485 E0.2524
G1 X-5.969 Y18.182 E0.2638
G1 X-5.861 Y17.848 E0.2753
G1 X-5.824 Y17.500 E0.2868
G1 X-5.861 Y17.152 E0.2983
G1 X-5.969 Y16.818 E0.3097
G1 X-6.144 Y16.515 E0.3212
G1 X-6.379 Y16.255 E0.3327
G1 X-6.662 Y16.049 E0.3441
; inner perimeter
G1 X8.127 Y15.571 F4800
G92 E0
G1 X7.712 Y15.483 E0.0139 F1350
G1 X7.288 Y15.483 E0.0278
G1 X6.873 Y15.571 E0.0416
G1 X6.486 Y15.744 E0.0555
G1 X6.143 Y15.993 E0.0694
G1 X5.859 Y16.308 E0.0833
G1 X5.647 Y16.675 E0.0972
G1 X5.516 Y17.078 E0.1110
G1 X5.472 Y17.500 E0.1249
G1 X5.516 Y17.922 E0.1388
G1 X5.647 Y18.325 E0.1527
G1 X5.859 Y18.692 E0.1666
G1 X6.143 Y19.007 E0.1804
G1 X6.486 Y19.256 E0.1943
G1 X6.873 Y19.429 E0.2082
G1 X7.288 Y19.517 E0.2221
G1 X7.712 Y19.517 E0.2360
G1 X8.127 Y19.429 E0.2498
G1 X8.514 Y19.256 E0.2637
G1 X8.857 Y19.007 E0.2776
G1 X9.141 Y18.692 E0.2915
G1 X9.353 Y18.325 E0.3054
G1 X9.484 Y17.922 E0.3192
G1 X9.528 Y17.500 E0.3331
G1 X9.484 Y17.078 E0.3470
G1 X9.353 Y16.675 E0.3609
G1 X9.141 Y16.308 E0.3748
G1 X8.857 Y15.993 E0.3886
G1 X8.514 Y15.744 E0.4025
G1 X8.127 Y15.571 E0.4164
; outer perimeter
G1 X8.018 Y15.906 F4800
G92 E0
G1 X7.675 Y15.833 E0.0115 F900
G1 X7.325 Y15.833 E0.0229
G1 X6.982 Y15.906 E0.0344
G1 X6.662 Y16.049 E0.0459
G1 X6.379 Y16.255 E0.0574
G1 X6.144 Y16.515 E0.0688
G1 X5.969 Y16.818 E0.0803
G1 X5.861 Y17.152 E0.0918
G1 X5.824 Y17.500 E0.1032
G1 X5.861 Y17.848 E0.1147
G1 X5.969 Y18.182 E0.1262
G1 X6.144 Y18.485 E0.1377
G1 X6.379 Y18.745 E0.1491
G1 X6.662 Y18.951 E0.1606
G1 X6.982 Y19.094 E0.1721
G1 X7.325 Y19.167 E0.1835
G1 X7.675 Y19.167 E0.1950
G1 X8.018 Y19.094 E0.2065
G1 X8.338 Y18.951 E0.2180
G1 X8.621 Y18.745 E0.2294
G1 X8.856 Y18.485 E0.2409
G1 X9.031 Y18.182 E0.2524
G1 X9.139 Y17.848 E0.2638
G1 X9.176 Y17.500 E0.2753
G1 X9.139 Y17.151 E0.2868
G1 X9.031 Y16.818 E0.2983
G1 X8.856 Y16.515 E0.3097
G1 X8.621 Y16.255 E0.3212
G1 X8.338 Y16.049 E0.3327
G1 X8.018 Y15.906 E0.3441
; solid layer
G1 X6.182 Y15.597 F4800
G92 E0
G1 X19.177 Y2.601 E0.6017 F1440
G1 X19.177 Y3.096 E0.6179
G1 X7.043 Y15.231 E1.1798
G1 X7.257 Y15.186 E1.1870
G1 X7.583 Y15.186 E1.1977
G1 X19.178 Y3.591 E1.7345
G1 X19.177 Y4.086 E1.7507
G1 X8.019 Y15.244 E2.2673
G1 X8.219 Y15.287 E2.2740
G1 X8.394 Y15.365 E2.2803
G1 X19.177 Y4.581 E2.7796
G1 X19.177 Y5.076 E2.7958
G1 X8.725 Y15.529 E3.2798
G1 X9.011 Y15.737 E3.2914
G1 X19.178 Y5.571 E3.7621
G1 X19.177 Y6.066 E3.7783
G1 X9.254 Y15.990 E4.2378
G1 X9.383 Y16.132 E4.2441
G1 X9.465 Y16.274 E4.2494
G1 X19.178 Y6.561 E4.6991
G1 X19.177 Y7.056 E4.7154
G1 X9.639 Y16.595 E5.1570
G1 X9.761 Y16.968 E5.1699
G1 X19.178 Y7.551 E5.6059
G1 X19.177 Y8.046 E5.6221
G1 X9.817 Y17.406 E6.0555
G1 X9.827 Y17.500 E6.0586
G1 X9.781 Y17.938 E6.0730
G1 X19.177 Y8.541 E6.5080
G1 X19.177 Y9.036 E6.5243
G1 X9.433 Y18.781 E6.9754
G92 E0
G1 E-8.4000 F3600
G1 Z0.325 F1000
G1 X-5.179 Y17.553 F4800
G1 Z0.225 F1000
G1 E-0.1000 F3600
G92 E0
G1 X19.177 Y-6.803 E1.1277 F1440
G1 X19.178 Y-7.298 E1.1439
G1 X-5.216 Y17.095 E2.2734
G1 X-5.224 Y17.016 E2.2760
G1 X-5.324 Y16.708 E2.2866
G1 X19.177 Y-7.793 E3.4210
G1 X19.178 Y-8.288 E3.4372
G1 X-5.480 Y16.370 E4.5789
G1 X-5.617 Y16.132 E4.5879
G1 X-5.674 Y16.069 E4.5907
G1 X19.178 Y-8.783 E5.7414
G1 X19.177 Y-9.278 E5.7576
G1 X-5.909 Y15.808 E6.9192
G1 X-5.943 Y15.771 E6.9208
G1 X-6.188 Y15.593 E6.9307
G1 X19.177 Y-9.773 E8.1052
G1 X19.177 Y-10.268 E8.1214
G1 X-6.502 Y15.411 E9.3104
G1 X-6.781 Y15.287 E9.3204
G1 X-6.856 Y15.271 E9.3230
G1 X19.177 Y-10.763 E10.5284
G1 X19.177 Y-11.258 E10.5446
G1 X-7.266 Y15.186 E11.7690
G1 X-7.743 Y15.186 E11.7846
G1 X-7.766 Y15.190 E11.7853
G1 X19.178 Y-11.753 E13.0329
G1 X19.177 Y-12.248 E13.0491
G1 X-8.468 Y15.398 E14.3291
G92 E0
G1 E-8.4000 F3600
G1 Z0.325 F1000
G1 X19.177 Y31.310 F4800
G1 Z0.225 F1000
G1 E-0.1000 F3600
G92 E0
G1 X18.810 Y31.678 E0.0170 F1440
