; G-Code generated by Simplify3D(R) Version 3.0.2
; Feb 18, 2016 at 12:32:43 AM
; Settings Summary
;   processName,new-normalish
;   applyToModels,rodMountSyringe,rodMountBarrel
;   profileName,DeltaMaker 3D Printer (modified)
;   profileVersion,2015-05-01 08:00:00
;   baseProfile,
;   printMaterial,PLA
;   printQuality,Medium
;   printExtruders,
;   extruderName,Primary Extruder
;   extruderToolheadNumber,0
;   extruderDiameter,0.35
;   extruderAutoWidth,0
;   extruderWidth,0.35
;   extrusionMultiplier,0.9
;   extruderUseRetract,1
;   extruderRetractionDistance,8.4
;   extruderExtraRestartDistance,-0.1
;   extruderRetractionZLift,0.1
;   extruderRetractionSpeed,3600
;   extruderUseCoasting,0
;   extruderCoastingDistance,0.2
;   extruderUseWipe,0
;   extruderWipeDistance,5
;   primaryExtruder,0
;   layerHeight,0.25
;   topSolidLayers,3
;   bottomSolidLayers,3
;   perimeterOutlines,2
;   printPerimetersInsideOut,1
;   startPointOption,2
;   startPointOriginX,0
;   startPointOriginY,0
;   startPointOriginZ,300
;   sequentialIslands,0
;   spiralVaseMode,0
;   firstLayerHeightPercentage,90
;   firstLayerWidthPercentage,100
;   firstLayerUnderspeed,0.5
;   useRaft,0
;   raftExtruder,0
;   raftLayers,3
;   raftOffset,3
;   raftSeparationDistance,0.14
;   raftInfill,85
;   disableRaftBaseLayers,0
;   useSkirt,1
;   skirtExtruder,0
;   skirtLayers,1
;   skirtOutlines,3
;   skirtOffset,4
;   usePrimePillar,0
;   primePillarExtruder,999
;   primePillarWidth,12
;   primePillarLocation,7
;   primePillarSpeedMultiplier,1
;   useOozeShield,0
;   oozeShieldExtruder,999
;   oozeShieldOffset,2
;   oozeShieldOutlines,1
;   oozeShieldSidewallShape,1
;   oozeShieldSidewallAngle,30
;   oozeShieldSpeedMultiplier,1
;   infillExtruder,0
;   internalInfillPattern,Rectilinear
;   externalInfillPattern,Rectilinear
;   infillPercentage,20
;   outlineOverlapPercentage,15
;   infillExtrusionWidthPercentage,100
;   minInfillLength,5
;   infillLayerInterval,1
;   infillAngles,45,-45
;   overlapInfillAngles,0
;   generateSupport,1
;   supportExtruder,0
;   supportInfillPercentage,30
;   supportExtraInflation,0
;   denseSupportLayers,0
;   denseSupportInfillPercentage,70
;   supportLayerInterval,1
;   supportHorizontalPartOffset,0.3
;   supportUpperSeparationLayers,1
;   supportLowerSeparationLayers,1
;   supportType,0
;   supportGridSpacing,4
;   maxOverhangAngle,45
;   supportAngles,0
;   temperatureName,Primary Extruder
;   temperatureNumber,0
;   temperatureSetpointCount,1
;   temperatureSetpointLayers,1
;   temperatureSetpointTemperatures,225
;   temperatureStabilizeAtStartup,1
;   temperatureHeatedBed,0
;   temperatureRelayBetweenLayers,0
;   temperatureRelayBetweenLoops,0
;   fanLayers,1,2
;   fanSpeeds,0,100
;   blipFanToFullPower,0
;   adjustSpeedForCooling,1
;   minSpeedLayerTime,15
;   minCoolingSpeedSlowdown,20
;   increaseFanForCooling,0
;   minFanLayerTime,45
;   maxCoolingFanSpeed,100
;   increaseFanForBridging,0
;   bridgingFanSpeed,100
;   use5D,1
;   relativeEdistances,0
;   allowEaxisZeroing,1
;   independentExtruderAxes,0
;   includeM10123,0
;   stickySupport,1
;   applyToolheadOffsets,0
;   gcodeXoffset,0
;   gcodeYoffset,0
;   gcodeZoffset,0
;   overrideMachineDefinition,1
;   machineTypeOverride,1
;   strokeXoverride,169.6
;   strokeYoverride,169.6
;   strokeZoverride,260
;   originOffsetXoverride,84.8
;   originOffsetYoverride,84.8
;   originOffsetZoverride,0
;   homeXdirOverride,0
;   homeYdirOverride,0
;   homeZdirOverride,1
;   flipXoverride,1
;   flipYoverride,-1
;   flipZoverride,1
;   toolheadOffsets,0,0|0,0|0,0|0,0|0,0|0,0
;   overrideFirmwareConfiguration,1
;   firmwareTypeOverride,RepRap (Marlin/Repetier/Sprinter)
;   GPXconfigOverride,r2
;   baudRateOverride,250000
;   overridePrinterModels,1
;   printerModelsOverride
;   startingGcode,G28 ; home all axes
;   layerChangeGcode,
;   retractionGcode,
;   toolChangeGcode,
;   endingGcode,G28,M104 S0 ; turn off extruder,M140 S0 ; turn off bed,M84 ; disable motors
;   createX3G,0
;   celebration,0
;   celebrationSong,Random Song
;   createMB5G,0
;   postProcessing,
;   defaultSpeed,3600
;   outlineUnderspeed,0.5
;   solidInfillUnderspeed,0.8
;   supportUnderspeed,0.8
;   rapidXYspeed,4800
;   rapidZspeed,1000
;   minBridgingArea,50
;   bridgingExtraInflation,0
;   bridgingExtrusionMultiplier,1
;   bridgingSpeedMultiplier,1
;   filamentDiameter,1.75
;   filamentPricePerKg,46
;   filamentDensity,1.25
;   useMinPrintHeight,0
;   minPrintHeight,0
;   useMaxPrintHeight,0
;   maxPrintHeight,0
;   useDiaphragm,0
;   diaphragmLayerInterval,20
;   robustSlicing,1
;   mergeAllIntoSolid,0
;   onlyRetractWhenCrossingOutline,1
;   retractBetweenLayers,1
;   useRetractionMinTravel,0
;   retractionMinTravel,3
;   retractWhileWiping,0
;   onlyWipeOutlines,1
;   avoidCrossingOutline,0
;   maxMovementDetourFactor,3
;   toolChangeRetractionDistance,12
;   toolChangeExtraRestartDistance,-0.5
;   toolChangeRetractionSpeed,600
;   allowThinWallGapFill,1
;   thinWallAllowedOverlapPercentage,10
;   horizontalSizeCompensation,0
G90
M82
M106 S0
M104 S225 T0
M109 S225 T0
G28 ; home all axes
G92 E0
G1 E-8.4000 F3600
G1 Z0.325 F1000
; layer 1, Z = 0.225
T0
; tool H0.250 W0.350
; skirt
G1 X14.875 Y-2.375 F4800
G1 Z0.225 F1000
G1 E-0.1000 F1080
G92 E0
G1 X16.831 Y-2.375 E0.0640 F1800
G1 X17.152 Y-2.242 E0.0754
G1 X19.742 Y0.348 E0.1953
G1 X19.875 Y0.669 E0.2067
G1 X19.875 Y34.331 E1.3088
G1 X19.742 Y34.653 E1.3202
G1 X17.152 Y37.242 E1.4401
G1 X16.831 Y37.375 E1.4515
G1 X-16.831 Y37.375 E2.5536
G1 X-17.152 Y37.242 E2.5650
G1 X-19.742 Y34.653 E2.6849
G1 X-19.875 Y34.331 E2.6963
G1 X-19.875 Y0.669 E3.7984
G1 X-19.742 Y0.348 E3.8098
G1 X-19.394 Y0.000 E3.8259
G1 X-19.742 Y-0.348 E3.8420
G1 X-19.875 Y-0.669 E3.8534
G1 X-19.875 Y-34.331 E4.9555
G1 X-19.742 Y-34.653 E4.9669
G1 X-17.152 Y-37.242 E5.0868
G1 X-16.831 Y-37.375 E5.0982
G1 X11.831 Y-37.375 E6.0366
G1 X12.152 Y-37.242 E6.0479
G1 X14.742 Y-34.653 E6.1678
G1 X14.875 Y-34.331 E6.1792
G1 X14.875 Y-2.375 E7.2255
G1 X14.525 Y-2.025 F4800
G92 E0
G1 X16.761 Y-2.025 E0.0732 F1800
G1 X16.954 Y-1.945 E0.0801
G1 X19.445 Y0.546 E0.1954
G1 X19.525 Y0.739 E0.2022
G1 X19.525 Y34.261 E1.2998
G1 X19.445 Y34.454 E1.3066
G1 X16.954 Y36.945 E1.4219
G1 X16.761 Y37.025 E1.4288
G1 X-16.761 Y37.025 E2.5263
G1 X-16.954 Y36.945 E2.5332
G1 X-19.445 Y34.454 E2.6485
G1 X-19.525 Y34.261 E2.6553
G1 X-19.525 Y0.739 E3.7529
G1 X-19.445 Y0.546 E3.7597
G1 X-18.899 Y0.000 E3.7850
G1 X-19.445 Y-0.546 E3.8102
G1 X-19.525 Y-0.739 E3.8171
G1 X-19.525 Y-34.261 E4.9146
G1 X-19.445 Y-34.454 E4.9215
G1 X-16.954 Y-36.945 E5.0368
G1 X-16.761 Y-37.025 E5.0436
G1 X11.761 Y-37.025 E5.9775
G1 X11.954 Y-36.945 E5.9843
G1 X14.445 Y-34.454 E6.0996
G1 X14.525 Y-34.261 E6.1065
G1 X14.525 Y-2.025 E7.1619
G1 X14.175 Y-1.675 F4800
G92 E0
G1 X16.692 Y-1.675 E0.0824 F1800
G1 X16.756 Y-1.648 E0.0847
G1 X19.148 Y0.744 E0.1954
G1 X19.175 Y0.808 E0.1977
G1 X19.175 Y34.192 E1.2907
G1 X19.148 Y34.256 E1.2930
G1 X16.756 Y36.648 E1.4038
G1 X16.692 Y36.675 E1.4060
G1 X-16.692 Y36.675 E2.4990
G1 X-16.756 Y36.648 E2.5013
G1 X-19.148 Y34.256 E2.6121
G1 X-19.175 Y34.192 E2.6144
G1 X-19.175 Y0.808 E3.7073
G1 X-19.148 Y0.744 E3.7096
G1 X-18.404 Y0.000 E3.7441
G1 X-19.148 Y-0.744 E3.7785
G1 X-19.175 Y-0.808 E3.7808
G1 X-19.175 Y-34.192 E4.8738
G1 X-19.148 Y-34.256 E4.8761
G1 X-16.756 Y-36.648 E4.9868
G1 X-16.692 Y-36.675 E4.9891
G1 X11.692 Y-36.675 E5.9184
G1 X11.756 Y-36.648 E5.9207
G1 X14.148 Y-34.256 E6.0315
G1 X14.175 Y-34.192 E6.0337
G1 X14.175 Y-1.675 E7.0983
G92 E0
G1 E-8.4000 F3600
G1 Z0.325 F1000
; inner perimeter
G1 X14.475 Y3.025 F4800
G1 Z0.225 F1000
G1 E-0.1000 F3600
G92 E0
G1 X14.475 Y31.975 E0.9478 F1350
G1 X-14.475 Y31.975 E1.8957
G1 X-14.475 Y3.025 E2.8435
G1 X14.475 Y3.025 E3.7913
; outer perimeter
G1 X14.825 Y2.675 F4800
G92 E0
G1 X14.825 Y32.325 E0.9708 F900
G1 X-14.825 Y32.325 E1.9415
G1 X-14.825 Y2.675 E2.9123
G1 X14.825 Y2.675 E3.8830
; inner perimeter
G1 X-5.647 Y9.175 F4800
G92 E0
G1 X-5.859 Y8.808 E0.0139 F1350
G1 X-6.143 Y8.493 E0.0278
G1 X-6.486 Y8.244 E0.0416
G1 X-6.873 Y8.071 E0.0555
G1 X-7.288 Y7.983 E0.0694
G1 X-7.712 Y7.983 E0.0833
G1 X-8.127 Y8.071 E0.0972
G1 X-8.514 Y8.244 E0.1110
G1 X-8.857 Y8.493 E0.1249
G1 X-9.141 Y8.808 E0.1388
G1 X-9.353 Y9.175 E0.1527
G1 X-9.484 Y9.578 E0.1666
G1 X-9.528 Y10.000 E0.1804
G1 X-9.484 Y10.422 E0.1943
G1 X-9.353 Y10.825 E0.2082
G1 X-9.141 Y11.192 E0.2221
G1 X-8.857 Y11.507 E0.2360
G1 X-8.514 Y11.756 E0.2498
G1 X-8.127 Y11.929 E0.2637
G1 X-7.712 Y12.017 E0.2776
G1 X-7.288 Y12.017 E0.2915
G1 X-6.873 Y11.929 E0.3054
G1 X-6.486 Y11.756 E0.3192
G1 X-6.143 Y11.507 E0.3331
G1 X-5.859 Y11.192 E0.3470
G1 X-5.647 Y10.825 E0.3609
G1 X-5.516 Y10.422 E0.3748
G1 X-5.472 Y10.000 E0.3886
G1 X-5.516 Y9.578 E0.4025
G1 X-5.647 Y9.175 E0.4164
; outer perimeter
G1 X-5.969 Y9.318 F4800
G92 E0
G1 X-6.144 Y9.015 E0.0115 F900
G1 X-6.379 Y8.755 E0.0229
G1 X-6.662 Y8.549 E0.0344
G1 X-6.982 Y8.406 E0.0459
G1 X-7.325 Y8.333 E0.0574
G1 X-7.675 Y8.333 E0.0688
G1 X-8.018 Y8.406 E0.0803
G1 X-8.338 Y8.549 E0.0918
G1 X-8.621 Y8.755 E0.1032
G1 X-8.856 Y9.015 E0.1147
G1 X-9.031 Y9.318 E0.1262
G1 X-9.139 Y9.652 E0.1377
G1 X-9.176 Y10.000 E0.1491
G1 X-9.139 Y10.348 E0.1606
G1 X-9.031 Y10.682 E0.1721
G1 X-8.856 Y10.985 E0.1835
G1 X-8.621 Y11.245 E0.1950
G1 X-8.338 Y11.451 E0.2065
G1 X-8.018 Y11.594 E0.2180
G1 X-7.675 Y11.667 E0.2294
G1 X-7.325 Y11.667 E0.2409
G1 X-6.982 Y11.594 E0.2524
G1 X-6.662 Y11.451 E0.2638
G1 X-6.379 Y11.245 E0.2753
G1 X-6.144 Y10.985 E0.2868
G1 X-5.969 Y10.682 E0.2983
G1 X-5.861 Y10.348 E0.3097
G1 X-5.824 Y10.000 E0.3212
G1 X-5.861 Y9.652 E0.3327
G1 X-5.969 Y9.318 E0.3441
; inner perimeter
G1 X-6.143 Y23.493 F4800
G92 E0
G1 X-6.486 Y23.244 E0.0139 F1350
G1 X-6.873 Y23.071 E0.0278
G1 X-7.288 Y22.983 E0.0416
G1 X-7.712 Y22.983 E0.0555
G1 X-8.127 Y23.071 E0.0694
G1 X-8.514 Y23.244 E0.0833
G1 X-8.857 Y23.493 E0.0972
G1 X-9.141 Y23.808 E0.1110
G1 X-9.353 Y24.175 E0.1249
G1 X-9.484 Y24.578 E0.1388
G1 X-9.528 Y25.000 E0.1527
G1 X-9.484 Y25.422 E0.1666
G1 X-9.353 Y25.825 E0.1804
G1 X-9.141 Y26.192 E0.1943
G1 X-8.857 Y26.507 E0.2082
G1 X-8.514 Y26.756 E0.2221
G1 X-8.127 Y26.929 E0.2360
G1 X-7.712 Y27.017 E0.2498
G1 X-7.288 Y27.017 E0.2637
G1 X-6.873 Y26.929 E0.2776
G1 X-6.486 Y26.756 E0.2915
G1 X-6.143 Y26.507 E0.3054
G1 X-5.859 Y26.192 E0.3192
G1 X-5.647 Y25.825 E0.3331
G1 X-5.516 Y25.422 E0.3470
G1 X-5.472 Y25.000 E0.3609
G1 X-5.516 Y24.578 E0.3748
G1 X-5.647 Y24.175 E0.3886
G1 X-5.859 Y23.808 E0.4025
G1 X-6.143 Y23.493 E0.4164
; outer perimeter
G1 X-6.379 Y23.755 F4800
G92 E0
G1 X-6.662 Y23.549 E0.0115 F900
G1 X-6.982 Y23.406 E0.0229
G1 X-7.325 Y23.333 E0.0344
G1 X-7.675 Y23.333 E0.0459
G1 X-8.018 Y23.406 E0.0574
G1 X-8.338 Y23.549 E0.0688
G1 X-8.621 Y23.755 E0.0803
G1 X-8.856 Y24.015 E0.0918
G1 X-9.031 Y24.318 E0.1032
G1 X-9.139 Y24.652 E0.1147
G1 X-9.176 Y25.000 E0.1262
G1 X-9.139 Y25.348 E0.1377
G1 X-9.031 Y25.682 E0.1491
G1 X-8.856 Y25.985 E0.1606
G1 X-8.621 Y26.245 E0.1721
G1 X-8.338 Y26.451 E0.1835
G1 X-8.018 Y26.594 E0.1950
G1 X-7.675 Y26.667 E0.2065
G1 X-7.325 Y26.667 E0.2180
G1 X-6.982 Y26.594 E0.2294
G1 X-6.662 Y26.451 E0.2409
G1 X-6.379 Y26.245 E0.2524
G1 X-6.144 Y25.985 E0.2638
G1 X-5.969 Y25.682 E0.2753
G1 X-5.861 Y25.348 E0.2868
G1 X-5.824 Y25.000 E0.2983
G1 X-5.861 Y24.652 E0.3097
G1 X-5.969 Y24.318 E0.3212
G1 X-6.144 Y24.015 E0.3327
G1 X-6.379 Y23.755 E0.3441
; solid layer
G1 X-5.176 Y24.975 F4800
G92 E0
G1 X14.178 Y5.622 E0.8961 F1440
G1 X14.178 Y5.127 E0.9123
G1 X-5.223 Y24.527 E1.8106
G1 X-5.224 Y24.516 E1.8109
G1 X-5.342 Y24.151 E1.8235
G1 X14.178 Y4.632 E2.7273
G1 X14.178 Y4.137 E2.7435
G1 X-5.508 Y23.822 E3.6550
G1 X-5.617 Y23.632 E3.6621
G1 X-5.710 Y23.529 E3.6667
G1 X14.177 Y3.642 E4.5875
G1 X14.178 Y3.322 E4.5979
G1 X14.002 Y3.323 E4.6037
G1 X-5.945 Y23.269 E5.5273
G1 X-6.232 Y23.061 E5.5389
G1 X13.507 Y3.322 E6.4528
G1 X13.012 Y3.322 E6.4690
G1 X-6.554 Y22.888 E7.3749
G1 X-6.781 Y22.787 E7.3831
G1 X-6.918 Y22.758 E7.3877
G1 X12.517 Y3.323 E8.2876
G1 X12.022 Y3.323 E8.3038
G1 X-7.341 Y22.686 E9.2003
G1 X-7.743 Y22.686 E9.2135
G1 X-7.862 Y22.711 E9.2174
G1 X11.527 Y3.322 E10.1151
G1 X11.032 Y3.323 E10.1314
G1 X-8.604 Y22.958 E11.0405
G1 X-5.187 Y10.137 F4800
G92 E0
G1 X1.627 Y3.322 E0.3155 F1440
G1 X1.132 Y3.323 E0.3317
G1 X-5.208 Y9.663 E0.6253
G1 X-5.224 Y9.516 E0.6302
G1 X-5.305 Y9.265 E0.6388
G1 X0.637 Y3.322 E0.9140
G1 X0.142 Y3.322 E0.9302
G1 X-5.453 Y8.918 E1.1892
G1 X-5.617 Y8.632 E1.2000
G1 X-5.639 Y8.609 E1.2011
G1 X-0.353 Y3.322 E1.4458
G1 X-0.848 Y3.323 E1.4620
G1 X-5.873 Y8.348 E1.6947
G1 X-5.943 Y8.271 E1.6981
G1 X-6.144 Y8.124 E1.7063
G1 X-1.343 Y3.322 E1.9286
G1 X-1.838 Y3.323 E1.9448
G1 X-6.449 Y7.934 E2.1584
G1 X-6.781 Y7.787 E2.1702
G1 X-6.794 Y7.784 E2.1707
G1 X-2.333 Y3.322 E2.3773
G1 X-2.827 Y3.323 E2.3935
G1 X-7.202 Y7.697 E2.5960
G1 X-7.257 Y7.686 E2.5978
G1 X-7.686 Y7.686 E2.6119
G1 X-3.322 Y3.323 E2.8139
G1 X-3.817 Y3.322 E2.8301
G1 X-8.332 Y7.837 E3.0392
G1 X-14.177 Y3.783 F4800
G92 E0
G1 X-13.717 Y3.323 E0.0213 F1440
G1 X-13.222 Y3.322 E0.0375
G1 X-14.178 Y4.278 E0.0818
G1 X-14.178 Y4.773 E0.0980
G1 X-12.727 Y3.322 E0.1651
G1 X-12.232 Y3.323 E0.1813
G1 X-14.178 Y5.268 E0.2714
G1 X-14.178 Y5.763 E0.2876
G1 X-11.737 Y3.322 E0.4006
G1 X-11.242 Y3.323 E0.4168
G1 X-14.178 Y6.258 E0.5528
G1 X-14.178 Y6.753 E0.5690
G1 X-10.747 Y3.323 E0.7278
G1 X-10.252 Y3.322 E0.7440
G1 X-14.178 Y7.248 E0.9258
G1 X-14.178 Y7.743 E0.9420
G1 X-9.757 Y3.322 E1.1466
G1 X-9.262 Y3.323 E1.1628
G1 X-14.178 Y8.238 E1.3904
G1 X-14.178 Y8.733 E1.4066
G1 X-8.767 Y3.323 E1.6571
G1 X-8.272 Y3.322 E1.6733
G1 X-14.178 Y9.228 E1.9468
G1 X-14.178 Y9.723 E1.9630
G1 X-7.777 Y3.323 E2.2593
G1 X-7.282 Y3.323 E2.2755
G1 X-14.178 Y10.218 E2.5948
G1 X-14.178 Y10.713 E2.6110
G1 X-6.787 Y3.323 E2.9532
G1 X-6.292 Y3.322 E2.9694
G1 X-14.178 Y11.208 E3.3345
G1 X-14.178 Y11.703 E3.3507
G1 X-5.797 Y3.323 E3.7387
G1 X-5.302 Y3.322 E3.7549
G1 X-14.178 Y12.198 E4.1658
G1 X-14.177 Y12.693 E4.1821
G1 X-4.807 Y3.322 E4.6159
G1 X-4.312 Y3.323 E4.6321
G1 X-14.178 Y13.188 E5.0889
G1 X-14.178 Y13.683 E5.1051
G1 X-9.663 Y9.168 E5.3141
G1 X-9.776 Y9.516 E5.3261
G1 X-9.807 Y9.807 E5.3357
G1 X-14.178 Y14.178 E5.5380
G1 X-14.178 Y14.673 E5.5542
G1 X-9.796 Y10.291 E5.7571
G1 X-9.776 Y10.484 E5.7634
G1 X-9.707 Y10.697 E5.7708
G1 X-14.178 Y15.167 E5.9778
G1 X-14.178 Y15.662 E5.9940
G1 X-9.566 Y11.051 E6.2075
G1 X-9.385 Y11.364 E6.2194
G1 X-14.178 Y16.157 E6.4413
G1 X-14.178 Y16.652 E6.4575
G1 X-9.151 Y11.625 E6.6903
G1 X-9.057 Y11.729 E6.6948
G1 X-8.885 Y11.855 E6.7018
G1 X-14.178 Y17.147 E6.9469
G1 X-14.178 Y17.642 E6.9631
G1 X-8.585 Y12.050 E7.2220
G1 X-8.243 Y12.203 E7.2343
G1 X-14.177 Y18.137 E7.5091
G1 X-14.178 Y18.632 E7.5253
G1 X-7.839 Y12.294 E7.8188
G1 X-7.743 Y12.314 E7.8220
G1 X-7.364 Y12.314 E7.8344
G1 X-14.178 Y19.127 E8.1498
G1 X-14.178 Y19.622 E8.1660
G1 X-6.758 Y12.203 E8.5096
G1 X-6.336 Y12.015 E8.5247
G1 X-5.943 Y11.729 E8.5406
G1 X-5.617 Y11.368 E8.5565
G1 X-5.374 Y10.946 E8.5725
G1 X-5.313 Y10.757 E8.5790
G1 X2.122 Y3.323 E8.9232
G1 X2.617 Y3.323 E8.9394
G1 X-14.178 Y20.117 E9.7171
G1 X-14.178 Y20.612 E9.7333
G1 X3.112 Y3.323 E10.5338
G1 X3.607 Y3.323 E10.5500
G1 X-14.178 Y21.107 E11.3735
G1 X-14.178 Y21.602 E11.3897
G1 X4.102 Y3.323 E12.2361
G1 X4.597 Y3.323 E12.2523
G1 X-14.178 Y22.097 E13.1216
G1 X-14.178 Y22.592 E13.1378
G1 X5.092 Y3.323 E14.0300
G1 X5.587 Y3.322 E14.0462
G1 X-14.178 Y23.087 E14.9613
G1 X-14.177 Y23.582 E14.9776
G1 X6.082 Y3.323 E15.9156
G1 X6.577 Y3.323 E15.9318
G1 X-14.177 Y24.077 E16.8928
G1 X-14.178 Y24.572 E16.9090
G1 X7.072 Y3.323 E17.8929
G1 X7.567 Y3.323 E17.9091
G1 X-14.178 Y25.067 E18.9159
G1 X-14.178 Y25.562 E18.9321
G1 X8.062 Y3.323 E19.9618
G1 X8.557 Y3.323 E19.9781
G1 X-14.178 Y26.057 E21.0307
G1 X-14.178 Y26.552 E21.0469
G1 X9.052 Y3.322 E22.1225
G1 X9.547 Y3.322 E22.1387
G1 X-14.178 Y27.047 E23.2372
G1 X-14.178 Y27.542 E23.2534
G1 X10.042 Y3.322 E24.3748
G1 X10.537 Y3.323 E24.3910
G1 X-14.178 Y28.037 E25.5353
G1 X-14.178 Y28.532 E25.5515
G1 X-9.526 Y23.880 E25.7669
G1 X-9.626 Y24.054 E25.7735
