; G-Code generated by Simplify3D(R) Version 3.0.2
; Feb 23, 2016 at 12:12:33 AM
; Settings Summary
;   processName,new-normalish
;   applyToModels,rodMountBarrel
;   profileName,DeltaMaker 3D Printer (modified)
;   profileVersion,2015-05-01 08:00:00
;   baseProfile,
;   printMaterial,PLA
;   printQuality,Medium
;   printExtruders,
;   extruderName,Primary Extruder
;   extruderToolheadNumber,0
;   extruderDiameter,0.35
;   extruderAutoWidth,0
;   extruderWidth,0.35
;   extrusionMultiplier,0.9
;   extruderUseRetract,1
;   extruderRetractionDistance,8.4
;   extruderExtraRestartDistance,-0.1
;   extruderRetractionZLift,0.1
;   extruderRetractionSpeed,3600
;   extruderUseCoasting,0
;   extruderCoastingDistance,0.2
;   extruderUseWipe,0
;   extruderWipeDistance,5
;   primaryExtruder,0
;   layerHeight,0.25
;   topSolidLayers,3
;   bottomSolidLayers,3
;   perimeterOutlines,2
;   printPerimetersInsideOut,1
;   startPointOption,2
;   startPointOriginX,0
;   startPointOriginY,0
;   startPointOriginZ,300
;   sequentialIslands,0
;   spiralVaseMode,0
;   firstLayerHeightPercentage,90
;   firstLayerWidthPercentage,100
;   firstLayerUnderspeed,0.5
;   useRaft,0
;   raftExtruder,0
;   raftLayers,3
;   raftOffset,3
;   raftSeparationDistance,0.14
;   raftInfill,85
;   disableRaftBaseLayers,0
;   useSkirt,1
;   skirtExtruder,0
;   skirtLayers,1
;   skirtOutlines,3
;   skirtOffset,4
;   usePrimePillar,0
;   primePillarExtruder,999
;   primePillarWidth,12
;   primePillarLocation,7
;   primePillarSpeedMultiplier,1
;   useOozeShield,0
;   oozeShieldExtruder,999
;   oozeShieldOffset,2
;   oozeShieldOutlines,1
;   oozeShieldSidewallShape,1
;   oozeShieldSidewallAngle,30
;   oozeShieldSpeedMultiplier,1
;   infillExtruder,0
;   internalInfillPattern,Rectilinear
;   externalInfillPattern,Rectilinear
;   infillPercentage,20
;   outlineOverlapPercentage,15
;   infillExtrusionWidthPercentage,100
;   minInfillLength,5
;   infillLayerInterval,1
;   infillAngles,45,-45
;   overlapInfillAngles,0
;   generateSupport,1
;   supportExtruder,0
;   supportInfillPercentage,30
;   supportExtraInflation,0
;   denseSupportLayers,0
;   denseSupportInfillPercentage,70
;   supportLayerInterval,1
;   supportHorizontalPartOffset,0.3
;   supportUpperSeparationLayers,1
;   supportLowerSeparationLayers,1
;   supportType,0
;   supportGridSpacing,4
;   maxOverhangAngle,45
;   supportAngles,0
;   temperatureName,Primary Extruder
;   temperatureNumber,0
;   temperatureSetpointCount,1
;   temperatureSetpointLayers,1
;   temperatureSetpointTemperatures,225
;   temperatureStabilizeAtStartup,1
;   temperatureHeatedBed,0
;   temperatureRelayBetweenLayers,0
;   temperatureRelayBetweenLoops,0
;   fanLayers,1,2
;   fanSpeeds,0,100
;   blipFanToFullPower,0
;   adjustSpeedForCooling,1
;   minSpeedLayerTime,15
;   minCoolingSpeedSlowdown,20
;   increaseFanForCooling,0
;   minFanLayerTime,45
;   maxCoolingFanSpeed,100
;   increaseFanForBridging,0
;   bridgingFanSpeed,100
;   use5D,1
;   relativeEdistances,0
;   allowEaxisZeroing,1
;   independentExtruderAxes,0
;   includeM10123,0
;   stickySupport,1
;   applyToolheadOffsets,0
;   gcodeXoffset,0
;   gcodeYoffset,0
;   gcodeZoffset,0
;   overrideMachineDefinition,1
;   machineTypeOverride,1
;   strokeXoverride,169.6
;   strokeYoverride,169.6
;   strokeZoverride,260
;   originOffsetXoverride,84.8
;   originOffsetYoverride,84.8
;   originOffsetZoverride,0
;   homeXdirOverride,0
;   homeYdirOverride,0
;   homeZdirOverride,1
;   flipXoverride,1
;   flipYoverride,-1
;   flipZoverride,1
;   toolheadOffsets,0,0|0,0|0,0|0,0|0,0|0,0
;   overrideFirmwareConfiguration,1
;   firmwareTypeOverride,RepRap (Marlin/Repetier/Sprinter)
;   GPXconfigOverride,r2
;   baudRateOverride,250000
;   overridePrinterModels,1
;   printerModelsOverride
;   startingGcode,G28 ; home all axes
;   layerChangeGcode,
;   retractionGcode,
;   toolChangeGcode,
;   endingGcode,G28,M104 S0 ; turn off extruder,M140 S0 ; turn off bed,M84 ; disable motors
;   createX3G,0
;   celebration,0
;   celebrationSong,Random Song
;   createMB5G,0
;   postProcessing,
;   defaultSpeed,3600
;   outlineUnderspeed,0.5
;   solidInfillUnderspeed,0.8
;   supportUnderspeed,0.8
;   rapidXYspeed,4800
;   rapidZspeed,1000
;   minBridgingArea,50
;   bridgingExtraInflation,0
;   bridgingExtrusionMultiplier,1
;   bridgingSpeedMultiplier,1
;   filamentDiameter,1.75
;   filamentPricePerKg,46
;   filamentDensity,1.25
;   useMinPrintHeight,0
;   minPrintHeight,0
;   useMaxPrintHeight,0
;   maxPrintHeight,0
;   useDiaphragm,0
;   diaphragmLayerInterval,20
;   robustSlicing,1
;   mergeAllIntoSolid,0
;   onlyRetractWhenCrossingOutline,1
;   retractBetweenLayers,1
;   useRetractionMinTravel,0
;   retractionMinTravel,3
;   retractWhileWiping,0
;   onlyWipeOutlines,1
;   avoidCrossingOutline,0
;   maxMovementDetourFactor,3
;   toolChangeRetractionDistance,12
;   toolChangeExtraRestartDistance,-0.5
;   toolChangeRetractionSpeed,600
;   allowThinWallGapFill,1
;   thinWallAllowedOverlapPercentage,10
;   horizontalSizeCompensation,0
G90
M82
M106 S0
M104 S225 T0
M109 S225 T0
G28 ; home all axes
G92 E0
G1 E-8.4000 F3600
G1 Z0.325 F1000
; layer 1, Z = 0.225
T0
; tool H0.250 W0.350
; skirt
G1 X19.875 Y-16.831 F4800
G1 Z0.225 F1000
G1 E-0.1000 F1080
G92 E0
G1 X19.875 Y16.831 E1.1021 F1800
G1 X19.742 Y17.152 E1.1135
G1 X17.152 Y19.742 E1.2334
G1 X16.831 Y19.875 E1.2448
G1 X-16.831 Y19.875 E2.3469
G1 X-17.152 Y19.742 E2.3583
G1 X-19.742 Y17.152 E2.4782
G1 X-19.875 Y16.831 E2.4896
G1 X-19.875 Y-16.831 E3.5917
G1 X-19.742 Y-17.152 E3.6031
G1 X-17.152 Y-19.742 E3.7230
G1 X-16.831 Y-19.875 E3.7344
G1 X16.831 Y-19.875 E4.8365
G1 X17.152 Y-19.742 E4.8479
G1 X19.742 Y-17.152 E4.9677
G1 X19.875 Y-16.831 E4.9791
G1 X19.525 Y-16.761 F4800
G92 E0
G1 X19.525 Y16.761 E1.0975 F1800
G1 X19.445 Y16.954 E1.1044
G1 X16.954 Y19.445 E1.2197
G1 X16.761 Y19.525 E1.2266
G1 X-16.761 Y19.525 E2.3241
G1 X-16.954 Y19.445 E2.3309
G1 X-19.445 Y16.954 E2.4463
G1 X-19.525 Y16.761 E2.4531
G1 X-19.525 Y-16.761 E3.5506
G1 X-19.445 Y-16.954 E3.5575
G1 X-16.954 Y-19.445 E3.6728
G1 X-16.761 Y-19.525 E3.6797
G1 X16.761 Y-19.525 E4.7772
G1 X16.954 Y-19.445 E4.7840
G1 X19.445 Y-16.954 E4.8994
G1 X19.525 Y-16.761 E4.9062
G1 X19.175 Y-16.692 F4800
G92 E0
G1 X19.175 Y16.692 E1.0930 F1800
G1 X19.148 Y16.756 E1.0953
G1 X16.756 Y19.148 E1.2060
G1 X16.692 Y19.175 E1.2083
G1 X-16.692 Y19.175 E2.3013
G1 X-16.756 Y19.148 E2.3036
G1 X-19.148 Y16.756 E2.4144
G1 X-19.175 Y16.692 E2.4166
G1 X-19.175 Y-16.692 E3.5096
G1 X-19.148 Y-16.756 E3.5119
G1 X-16.756 Y-19.148 E3.6227
G1 X-16.692 Y-19.175 E3.6249
G1 X16.692 Y-19.175 E4.7179
G1 X16.756 Y-19.148 E4.7202
G1 X19.148 Y-16.756 E4.8310
G1 X19.175 Y-16.692 E4.8333
G92 E0
G1 E-8.4000 F3600
G1 Z0.325 F1000
; inner perimeter
G1 X14.475 Y-14.475 F4800
G1 Z0.225 F1000
G1 E-0.1000 F3600
G92 E0
G1 X14.475 Y14.475 E0.9478 F1350
G1 X-14.475 Y14.475 E1.8957
G1 X-14.475 Y-14.475 E2.8435
G1 X14.475 Y-14.475 E3.7913
; outer perimeter
G1 X14.825 Y-14.825 F4800
G92 E0
G1 X14.825 Y14.825 E0.9708 F900
G1 X-14.825 Y14.825 E1.9415
G1 X-14.825 Y-14.825 E2.9123
G1 X14.825 Y-14.825 E3.8830
; inner perimeter
G1 X-5.647 Y-8.325 F4800
G92 E0
G1 X-5.859 Y-8.692 E0.0139 F1350
G1 X-6.143 Y-9.007 E0.0278
G1 X-6.486 Y-9.256 E0.0416
G1 X-6.873 Y-9.429 E0.0555
G1 X-7.288 Y-9.517 E0.0694
G1 X-7.712 Y-9.517 E0.0833
G1 X-8.127 Y-9.429 E0.0972
G1 X-8.514 Y-9.256 E0.1110
G1 X-8.857 Y-9.007 E0.1249
G1 X-9.141 Y-8.692 E0.1388
G1 X-9.353 Y-8.325 E0.1527
G1 X-9.484 Y-7.922 E0.1666
G1 X-9.528 Y-7.500 E0.1804
G1 X-9.484 Y-7.078 E0.1943
G1 X-9.353 Y-6.675 E0.2082
G1 X-9.141 Y-6.308 E0.2221
G1 X-8.857 Y-5.993 E0.2360
G1 X-8.514 Y-5.744 E0.2498
G1 X-8.127 Y-5.571 E0.2637
G1 X-7.712 Y-5.483 E0.2776
G1 X-7.288 Y-5.483 E0.2915
G1 X-6.873 Y-5.571 E0.3054
G1 X-6.486 Y-5.744 E0.3192
G1 X-6.143 Y-5.993 E0.3331
G1 X-5.859 Y-6.308 E0.3470
G1 X-5.647 Y-6.675 E0.3609
G1 X-5.516 Y-7.078 E0.3748
G1 X-5.472 Y-7.500 E0.3886
G1 X-5.516 Y-7.922 E0.4025
G1 X-5.647 Y-8.325 E0.4164
; outer perimeter
G1 X-5.969 Y-8.182 F4800
G92 E0
G1 X-6.144 Y-8.485 E0.0115 F900
G1 X-6.379 Y-8.745 E0.0229
G1 X-6.662 Y-8.951 E0.0344
G1 X-6.982 Y-9.094 E0.0459
G1 X-7.325 Y-9.167 E0.0574
G1 X-7.675 Y-9.167 E0.0688
G1 X-8.018 Y-9.094 E0.0803
G1 X-8.338 Y-8.951 E0.0918
G1 X-8.621 Y-8.745 E0.1032
G1 X-8.856 Y-8.485 E0.1147
G1 X-9.031 Y-8.182 E0.1262
G1 X-9.139 Y-7.848 E0.1377
G1 X-9.176 Y-7.500 E0.1491
G1 X-9.139 Y-7.152 E0.1606
G1 X-9.031 Y-6.818 E0.1721
G1 X-8.856 Y-6.515 E0.1835
G1 X-8.621 Y-6.255 E0.1950
G1 X-8.338 Y-6.049 E0.2065
G1 X-8.018 Y-5.906 E0.2180
G1 X-7.675 Y-5.833 E0.2294
G1 X-7.325 Y-5.833 E0.2409
G1 X-6.982 Y-5.906 E0.2524
G1 X-6.662 Y-6.049 E0.2638
G1 X-6.379 Y-6.255 E0.2753
G1 X-6.144 Y-6.515 E0.2868
G1 X-5.969 Y-6.818 E0.2983
G1 X-5.861 Y-7.152 E0.3097
G1 X-5.824 Y-7.500 E0.3212
G1 X-5.861 Y-7.848 E0.3327
G1 X-5.969 Y-8.182 E0.3441
; inner perimeter
G1 X-6.143 Y5.993 F4800
G92 E0
G1 X-6.486 Y5.744 E0.0139 F1350
G1 X-6.873 Y5.571 E0.0278
G1 X-7.288 Y5.483 E0.0416
G1 X-7.712 Y5.483 E0.0555
G1 X-8.127 Y5.571 E0.0694
G1 X-8.514 Y5.744 E0.0833
G1 X-8.857 Y5.993 E0.0972
G1 X-9.141 Y6.308 E0.1110
G1 X-9.353 Y6.675 E0.1249
G1 X-9.484 Y7.078 E0.1388
G1 X-9.528 Y7.500 E0.1527
G1 X-9.484 Y7.922 E0.1666
G1 X-9.353 Y8.325 E0.1804
G1 X-9.141 Y8.692 E0.1943
G1 X-8.857 Y9.007 E0.2082
G1 X-8.514 Y9.256 E0.2221
G1 X-8.127 Y9.429 E0.2360
G1 X-7.712 Y9.517 E0.2498
G1 X-7.288 Y9.517 E0.2637
G1 X-6.873 Y9.429 E0.2776
G1 X-6.486 Y9.256 E0.2915
G1 X-6.143 Y9.007 E0.3054
G1 X-5.859 Y8.692 E0.3192
G1 X-5.647 Y8.325 E0.3331
G1 X-5.516 Y7.922 E0.3470
G1 X-5.472 Y7.500 E0.3609
G1 X-5.516 Y7.078 E0.3748
G1 X-5.647 Y6.675 E0.3886
G1 X-5.859 Y6.308 E0.4025
G1 X-6.143 Y5.993 E0.4164
; outer perimeter
G1 X-6.379 Y6.255 F4800
G92 E0
G1 X-6.662 Y6.049 E0.0115 F900
G1 X-6.982 Y5.906 E0.0229
G1 X-7.325 Y5.833 E0.0344
G1 X-7.675 Y5.833 E0.0459
G1 X-8.018 Y5.906 E0.0574
G1 X-8.338 Y6.049 E0.0688
G1 X-8.621 Y6.255 E0.0803
G1 X-8.856 Y6.515 E0.0918
G1 X-9.031 Y6.818 E0.1032
G1 X-9.139 Y7.152 E0.1147
G1 X-9.176 Y7.500 E0.1262
G1 X-9.139 Y7.848 E0.1377
G1 X-9.031 Y8.182 E0.1491
G1 X-8.856 Y8.485 E0.1606
G1 X-8.621 Y8.745 E0.1721
G1 X-8.338 Y8.951 E0.1835
G1 X-8.018 Y9.094 E0.1950
G1 X-7.675 Y9.167 E0.2065
G1 X-7.325 Y9.167 E0.2180
G1 X-6.982 Y9.094 E0.2294
G1 X-6.662 Y8.951 E0.2409
G1 X-6.379 Y8.745 E0.2524
G1 X-6.144 Y8.485 E0.2638
G1 X-5.969 Y8.182 E0.2753
G1 X-5.861 Y7.848 E0.2868
G1 X-5.824 Y7.500 E0.2983
G1 X-5.861 Y7.152 E0.3097
G1 X-5.969 Y6.818 E0.3212
G1 X-6.144 Y6.515 E0.3327
G1 X-6.379 Y6.255 E0.3441
; solid layer
G1 X-7.661 Y5.186 F4800
G92 E0
G1 X11.703 Y-14.178 E0.8966 F1440
G1 X12.198 Y-14.178 E0.9128
G1 X-7.182 Y5.202 E1.8101
G1 X-6.781 Y5.287 E1.8235
G1 X-6.775 Y5.290 E1.8237
G1 X12.693 Y-14.178 E2.7251
G1 X13.188 Y-14.178 E2.7413
G1 X-6.432 Y5.442 E3.6497
G1 X-6.336 Y5.485 E3.6531
G1 X-6.130 Y5.635 E3.6615
G1 X13.683 Y-14.178 E4.5788
G1 X14.178 Y-14.178 E4.5950
G1 X14.178 Y-14.177 E4.5950
G1 X-5.861 Y5.861 E5.5229
G1 X-5.627 Y6.122 E5.5344
G1 X14.178 Y-13.682 E6.4513
G1 X14.178 Y-13.188 E6.4675
G1 X-5.443 Y6.433 E7.3760
G1 X-5.374 Y6.554 E7.3806
G1 X-5.299 Y6.784 E7.3885
G1 X14.178 Y-12.693 E8.2903
G1 X14.178 Y-12.198 E8.3065
G1 X-5.206 Y7.186 E9.2040
G1 X-5.173 Y7.500 E9.2144
G1 X-5.190 Y7.665 E9.2198
G1 X14.178 Y-11.703 E10.1166
G1 X14.178 Y-11.208 E10.1328
G1 X-5.325 Y8.295 E11.0358
G1 X-5.440 Y-6.439 F4800
G92 E0
G1 X2.298 Y-14.178 E0.3583 F1440
G1 X1.803 Y-14.177 E0.3745
G1 X-5.208 Y-7.166 E0.6991
G1 X-5.173 Y-7.500 E0.7101
G1 X-5.192 Y-7.678 E0.7160
G1 X1.308 Y-14.178 E1.0169
G1 X0.813 Y-14.178 E1.0331
G1 X-5.262 Y-8.102 E1.3144
G1 X-5.374 Y-8.446 E1.3263
G1 X-5.388 Y-8.471 E1.3272
G1 X0.318 Y-14.178 E1.5914
G1 X-0.177 Y-14.178 E1.6076
G1 X-5.569 Y-8.785 E1.8573
G1 X-5.617 Y-8.868 E1.8605
G1 X-5.790 Y-9.059 E1.8689
G1 X-0.672 Y-14.177 E2.1059
G1 X-1.167 Y-14.178 E2.1221
G1 X-6.043 Y-9.302 E2.3479
G1 X-6.329 Y-9.510 E2.3595
G1 X-1.662 Y-14.178 E2.5756
G1 X-2.157 Y-14.178 E2.5918
G1 X-6.670 Y-9.664 E2.8008
G1 X-6.781 Y-9.713 E2.8047
G1 X-7.057 Y-9.772 E2.8140
G1 X-2.652 Y-14.177 E3.0180
G1 X-3.147 Y-14.178 E3.0342
G1 X-7.510 Y-9.814 E3.2362
G1 X-14.177 Y-14.036 F4800
G92 E0
G1 X-14.036 Y-14.178 E0.0066 F1440
G1 X-13.541 Y-14.178 E0.0228
G1 X-14.178 Y-13.541 E0.0522
G1 X-14.178 Y-13.046 E0.0684
G1 X-13.046 Y-14.178 E0.1208
G1 X-12.551 Y-14.178 E0.1370
G1 X-14.178 Y-12.551 E0.2123
G1 X-14.178 Y-12.056 E0.2285
G1 X-12.056 Y-14.178 E0.3268
G1 X-11.561 Y-14.178 E0.3430
G1 X-14.178 Y-11.561 E0.4641
G1 X-14.178 Y-11.066 E0.4803
G1 X-11.066 Y-14.178 E0.6244
G1 X-10.571 Y-14.178 E0.6406
G1 X-14.178 Y-10.571 E0.8076
G1 X-14.178 Y-10.076 E0.8238
G1 X-10.076 Y-14.178 E1.0137
G1 X-9.581 Y-14.178 E1.0299
G1 X-14.178 Y-9.581 E1.2427
G1 X-14.178 Y-9.086 E1.2589
G1 X-9.086 Y-14.177 E1.4946
G1 X-8.591 Y-14.178 E1.5108
G1 X-14.178 Y-8.591 E1.7695
G1 X-14.178 Y-8.096 E1.7857
G1 X-8.096 Y-14.178 E2.0673
G1 X-7.601 Y-14.177 E2.0835
G1 X-14.178 Y-7.601 E2.3879
G1 X-14.178 Y-7.106 E2.4042
G1 X-7.106 Y-14.178 E2.7316
G1 X-6.611 Y-14.178 E2.7478
G1 X-14.178 Y-6.611 E3.0981
G1 X-14.178 Y-6.116 E3.1143
G1 X-6.116 Y-14.178 E3.4875
G1 X-5.621 Y-14.178 E3.5037
G1 X-14.178 Y-5.621 E3.8999
G1 X-14.178 Y-5.126 E3.9161
G1 X-5.126 Y-14.178 E4.3352
G1 X-4.632 Y-14.178 E4.3514
G1 X-14.178 Y-4.632 E4.7934
G1 X-14.178 Y-4.137 E4.8096
G1 X-4.137 Y-14.177 E5.2745
G1 X-3.642 Y-14.178 E5.2907
G1 X-8.075 Y-9.744 E5.4960
G1 X-8.219 Y-9.713 E5.5008
G1 X-8.664 Y-9.515 E5.5168
G1 X-9.057 Y-9.229 E5.5327
G1 X-9.383 Y-8.868 E5.5486
G1 X-9.626 Y-8.446 E5.5645
G1 X-9.748 Y-8.071 E5.5775
G1 X-14.178 Y-3.642 E5.7826
G1 X-14.178 Y-3.147 E5.7988
G1 X-9.827 Y-7.497 E6.0002
G1 X-9.780 Y-7.049 E6.0150
G1 X-14.178 Y-2.652 E6.2186
G1 X-14.178 Y-2.157 E6.2348
G1 X-9.664 Y-6.670 E6.4438
G1 X-9.626 Y-6.554 E6.4478
G1 X-9.501 Y-6.338 E6.4560
G1 X-14.178 Y-1.662 E6.6725
G1 X-14.178 Y-1.167 E6.6887
G1 X-9.302 Y-6.042 E6.9144
G1 X-9.067 Y-5.782 E6.9259
G1 X-14.178 Y-0.672 E7.1625
G1 X-14.178 Y-0.177 E7.1787
G1 X-8.783 Y-5.571 E7.4285
G1 X-8.664 Y-5.485 E7.4333
G1 X-8.464 Y-5.396 E7.4405
G1 X-14.178 Y0.318 E7.7051
G1 X-14.178 Y0.813 E7.7213
G1 X-8.102 Y-5.262 E8.0026
G1 X-7.743 Y-5.186 E8.0146
G1 X-7.684 Y-5.186 E8.0166
G1 X-14.178 Y1.308 E8.3172
G1 X-14.178 Y1.803 E8.3334
G1 X-7.170 Y-5.204 E8.6579
G1 X-6.781 Y-5.287 E8.6709
G1 X-6.441 Y-5.438 E8.6831
G1 X-14.178 Y2.298 E9.0413
G1 X-14.178 Y2.793 E9.0575
G1 X2.793 Y-14.177 E9.8433
G1 X3.288 Y-14.178 E9.8595
G1 X-14.178 Y3.288 E10.6682
G1 X-14.178 Y3.783 E10.6844
G1 X3.783 Y-14.178 E11.5160
G1 X4.278 Y-14.178 E11.5322
G1 X-14.178 Y4.278 E12.3867
G1 X-14.178 Y4.773 E12.4029
G1 X4.773 Y-14.178 E13.2804
G1 X5.268 Y-14.177 E13.2966
G1 X-14.178 Y5.268 E14.1969
G1 X-14.178 Y5.763 E14.2131
G1 X5.763 Y-14.178 E15.1364
G1 X6.258 Y-14.177 E15.1526
G1 X-14.178 Y6.258 E16.0988
G1 X-14.178 Y6.753 E16.1150
G1 X6.753 Y-14.177 E17.0842
G1 X7.248 Y-14.178 E17.1004
G1 X-14.178 Y7.248 E18.0924
G1 X-14.178 Y7.743 E18.1086
G1 X7.743 Y-14.178 E19.1236
G1 X8.238 Y-14.177 E19.1398
G1 X-14.178 Y8.238 E20.1776
G1 X-14.178 Y8.733 E20.1939
G1 X8.733 Y-14.177 E21.2546
G1 X9.228 Y-14.178 E21.2709
G1 X-14.178 Y9.228 E22.3546
G1 X-14.178 Y9.723 E22.3708
G1 X9.723 Y-14.178 E23.4774
G1 X10.218 Y-14.177 E23.4936
G1 X-14.178 Y10.218 E24.6231
G1 X-14.178 Y10.713 E24.6394
G1 X10.713 Y-14.178 E25.7918
G1 X11.208 Y-14.177 E25.8080
G1 X-8.287 Y5.317 E26.7107
G1 X-8.664 Y5.485 E26.7242
G1 X-9.057 Y5.771 E26.7401
G1 X-9.383 Y6.132 E26.7560
G1 X-9.626 Y6.554 E26.7719
G1 X-9.675 Y6.705 E26.7772
G1 X-14.178 Y11.208 E26.9856
G1 X-14.178 Y11.703 E27.0018
G1 X-9.810 Y7.335 E27.2041
G1 X-9.827 Y7.500 E27.2095
G1 X-9.794 Y7.814 E27.2199
G1 X-14.178 Y12.198 E27.4228
G1 X-14.178 Y12.693 E27.4390
G1 X-9.701 Y8.216 E27.6463
G1 X-9.626 Y8.446 E27.6543
G1 X-9.557 Y8.567 E27.6588
G1 X-14.178 Y13.188 E27.8728
G1 X-14.178 Y13.683 E27.8890
G1 X-9.373 Y8.878 E28.1114
G1 X-9.139 Y9.139 E28.1229
G1 X-14.177 Y14.178 E28.3562
G1 X-13.682 Y14.178 E28.3724
G1 X-8.870 Y9.365 E28.5952
G1 X-8.664 Y9.515 E28.6036
G1 X-8.568 Y9.558 E28.6070
G1 X-13.188 Y14.178 E28.8209
