; G-Code generated by Simplify3D(R) Version 3.0.2
; Feb 23, 2016 at 1:33:05 AM
; Settings Summary
;   processName,new-normalish
;   applyToModels,rodMountPlunger_short
;   profileName,DeltaMaker 3D Printer (modified)
;   profileVersion,2015-05-01 08:00:00
;   baseProfile,
;   printMaterial,PLA
;   printQuality,Medium
;   printExtruders,
;   extruderName,Primary Extruder
;   extruderToolheadNumber,0
;   extruderDiameter,0.35
;   extruderAutoWidth,0
;   extruderWidth,0.35
;   extrusionMultiplier,0.9
;   extruderUseRetract,1
;   extruderRetractionDistance,8.4
;   extruderExtraRestartDistance,-0.1
;   extruderRetractionZLift,0.1
;   extruderRetractionSpeed,3600
;   extruderUseCoasting,0
;   extruderCoastingDistance,0.2
;   extruderUseWipe,0
;   extruderWipeDistance,5
;   primaryExtruder,0
;   layerHeight,0.25
;   topSolidLayers,3
;   bottomSolidLayers,3
;   perimeterOutlines,2
;   printPerimetersInsideOut,1
;   startPointOption,2
;   startPointOriginX,0
;   startPointOriginY,0
;   startPointOriginZ,300
;   sequentialIslands,0
;   spiralVaseMode,0
;   firstLayerHeightPercentage,90
;   firstLayerWidthPercentage,100
;   firstLayerUnderspeed,0.5
;   useRaft,0
;   raftExtruder,0
;   raftLayers,3
;   raftOffset,3
;   raftSeparationDistance,0.14
;   raftInfill,85
;   disableRaftBaseLayers,0
;   useSkirt,1
;   skirtExtruder,0
;   skirtLayers,1
;   skirtOutlines,3
;   skirtOffset,4
;   usePrimePillar,0
;   primePillarExtruder,999
;   primePillarWidth,12
;   primePillarLocation,7
;   primePillarSpeedMultiplier,1
;   useOozeShield,0
;   oozeShieldExtruder,999
;   oozeShieldOffset,2
;   oozeShieldOutlines,1
;   oozeShieldSidewallShape,1
;   oozeShieldSidewallAngle,30
;   oozeShieldSpeedMultiplier,1
;   infillExtruder,0
;   internalInfillPattern,Rectilinear
;   externalInfillPattern,Rectilinear
;   infillPercentage,20
;   outlineOverlapPercentage,15
;   infillExtrusionWidthPercentage,100
;   minInfillLength,5
;   infillLayerInterval,1
;   infillAngles,45,-45
;   overlapInfillAngles,0
;   generateSupport,1
;   supportExtruder,0
;   supportInfillPercentage,30
;   supportExtraInflation,0
;   denseSupportLayers,0
;   denseSupportInfillPercentage,70
;   supportLayerInterval,1
;   supportHorizontalPartOffset,0.3
;   supportUpperSeparationLayers,1
;   supportLowerSeparationLayers,1
;   supportType,0
;   supportGridSpacing,4
;   maxOverhangAngle,45
;   supportAngles,0
;   temperatureName,Primary Extruder
;   temperatureNumber,0
;   temperatureSetpointCount,1
;   temperatureSetpointLayers,1
;   temperatureSetpointTemperatures,225
;   temperatureStabilizeAtStartup,1
;   temperatureHeatedBed,0
;   temperatureRelayBetweenLayers,0
;   temperatureRelayBetweenLoops,0
;   fanLayers,1,2
;   fanSpeeds,0,100
;   blipFanToFullPower,0
;   adjustSpeedForCooling,1
;   minSpeedLayerTime,15
;   minCoolingSpeedSlowdown,20
;   increaseFanForCooling,0
;   minFanLayerTime,45
;   maxCoolingFanSpeed,100
;   increaseFanForBridging,0
;   bridgingFanSpeed,100
;   use5D,1
;   relativeEdistances,0
;   allowEaxisZeroing,1
;   independentExtruderAxes,0
;   includeM10123,0
;   stickySupport,1
;   applyToolheadOffsets,0
;   gcodeXoffset,0
;   gcodeYoffset,0
;   gcodeZoffset,0
;   overrideMachineDefinition,1
;   machineTypeOverride,1
;   strokeXoverride,169.6
;   strokeYoverride,169.6
;   strokeZoverride,260
;   originOffsetXoverride,84.8
;   originOffsetYoverride,84.8
;   originOffsetZoverride,0
;   homeXdirOverride,0
;   homeYdirOverride,0
;   homeZdirOverride,1
;   flipXoverride,1
;   flipYoverride,-1
;   flipZoverride,1
;   toolheadOffsets,0,0|0,0|0,0|0,0|0,0|0,0
;   overrideFirmwareConfiguration,1
;   firmwareTypeOverride,RepRap (Marlin/Repetier/Sprinter)
;   GPXconfigOverride,r2
;   baudRateOverride,250000
;   overridePrinterModels,1
;   printerModelsOverride
;   startingGcode,G28 ; home all axes
;   layerChangeGcode,
;   retractionGcode,
;   toolChangeGcode,
;   endingGcode,G28,M104 S0 ; turn off extruder,M140 S0 ; turn off bed,M84 ; disable motors
;   createX3G,0
;   celebration,0
;   celebrationSong,Random Song
;   createMB5G,0
;   postProcessing,
;   defaultSpeed,3600
;   outlineUnderspeed,0.5
;   solidInfillUnderspeed,0.8
;   supportUnderspeed,0.8
;   rapidXYspeed,4800
;   rapidZspeed,1000
;   minBridgingArea,50
;   bridgingExtraInflation,0
;   bridgingExtrusionMultiplier,1
;   bridgingSpeedMultiplier,1
;   filamentDiameter,1.75
;   filamentPricePerKg,46
;   filamentDensity,1.25
;   useMinPrintHeight,0
;   minPrintHeight,0
;   useMaxPrintHeight,0
;   maxPrintHeight,0
;   useDiaphragm,0
;   diaphragmLayerInterval,20
;   robustSlicing,1
;   mergeAllIntoSolid,0
;   onlyRetractWhenCrossingOutline,1
;   retractBetweenLayers,1
;   useRetractionMinTravel,0
;   retractionMinTravel,3
;   retractWhileWiping,0
;   onlyWipeOutlines,1
;   avoidCrossingOutline,0
;   maxMovementDetourFactor,3
;   toolChangeRetractionDistance,12
;   toolChangeExtraRestartDistance,-0.5
;   toolChangeRetractionSpeed,600
;   allowThinWallGapFill,1
;   thinWallAllowedOverlapPercentage,10
;   horizontalSizeCompensation,0
G90
M82
M106 S0
M104 S225 T0
M109 S225 T0
G28 ; home all axes
G92 E0
G1 E-8.4000 F3600
G1 Z0.325 F1000
; layer 1, Z = 0.225
T0
; tool H0.250 W0.350
; skirt
G1 X-12.301 Y16.831 F4800
G1 Z0.225 F1000
G1 E-0.1000 F1080
G92 E0
G1 X-12.301 Y-16.831 E1.1021 F1800
G1 X-12.168 Y-17.152 E1.1135
G1 X-9.578 Y-19.742 E1.2334
G1 X-9.257 Y-19.875 E1.2448
G1 X12.255 Y-19.875 E1.9491
G1 X12.576 Y-19.742 E1.9605
G1 X15.166 Y-17.152 E2.0804
G1 X15.299 Y-16.831 E2.0918
G1 X15.299 Y16.831 E3.1939
G1 X15.166 Y17.152 E3.2053
G1 X12.576 Y19.742 E3.3252
G1 X12.255 Y19.875 E3.3366
G1 X-9.257 Y19.875 E4.0409
G1 X-9.578 Y19.742 E4.0523
G1 X-12.168 Y17.152 E4.1722
G1 X-12.301 Y16.831 E4.1835
G1 X-11.951 Y16.761 F4800
G92 E0
G1 X-11.951 Y-16.761 E1.0975 F1800
G1 X-11.871 Y-16.954 E1.1044
G1 X-9.380 Y-19.445 E1.2197
G1 X-9.187 Y-19.525 E1.2266
G1 X12.185 Y-19.525 E1.9263
G1 X12.378 Y-19.445 E1.9331
G1 X14.869 Y-16.954 E2.0485
G1 X14.949 Y-16.761 E2.0553
G1 X14.949 Y16.761 E3.1528
G1 X14.869 Y16.954 E3.1597
G1 X12.378 Y19.445 E3.2750
G1 X12.185 Y19.525 E3.2819
G1 X-9.187 Y19.525 E3.9816
G1 X-9.380 Y19.445 E3.9884
G1 X-11.871 Y16.954 E4.1038
G1 X-11.951 Y16.761 E4.1106
G1 X-11.601 Y16.692 F4800
G92 E0
G1 X-11.601 Y-16.692 E1.0930 F1800
G1 X-11.574 Y-16.756 E1.0953
G1 X-9.182 Y-19.148 E1.2060
G1 X-9.118 Y-19.175 E1.2083
G1 X12.116 Y-19.175 E1.9035
G1 X12.180 Y-19.148 E1.9058
G1 X14.572 Y-16.756 E2.0166
G1 X14.599 Y-16.692 E2.0188
G1 X14.599 Y16.692 E3.1118
G1 X14.572 Y16.756 E3.1141
G1 X12.180 Y19.148 E3.2249
G1 X12.116 Y19.175 E3.2271
G1 X-9.118 Y19.175 E3.9223
G1 X-9.182 Y19.148 E3.9246
G1 X-11.574 Y16.756 E4.0354
G1 X-11.601 Y16.692 E4.0377
G92 E0
G1 E-8.4000 F3600
G1 Z0.325 F1000
; inner perimeter
G1 X-6.901 Y14.475 F4800
G1 Z0.225 F1000
G1 E-0.1000 F3600
G92 E0
G1 X-6.901 Y-14.475 E0.9478 F1350
G1 X9.899 Y-14.475 E1.4979
G1 X9.899 Y14.475 E2.4457
G1 X-6.901 Y14.475 E2.9958
; outer perimeter
G1 X-7.251 Y14.825 F4800
G92 E0
G1 X-7.251 Y-14.825 E0.9708 F900
G1 X10.249 Y-14.825 E1.5437
G1 X10.249 Y14.825 E2.5145
G1 X-7.251 Y14.825 E3.0874
; solid layer
G1 X9.581 Y14.177 F4800
G92 E0
G1 X9.601 Y14.157 E0.0009 F1440
G1 X9.601 Y13.662 E0.0171
G1 X9.086 Y14.178 E0.0410
G1 X8.591 Y14.178 E0.0572
G1 X9.602 Y13.167 E0.1040
G1 X9.601 Y12.672 E0.1202
G1 X8.096 Y14.178 E0.1899
G1 X7.601 Y14.178 E0.2061
G1 X9.601 Y12.177 E0.2987
G1 X9.602 Y11.682 E0.3149
G1 X7.106 Y14.178 E0.4304
G1 X6.611 Y14.178 E0.4466
G1 X9.601 Y11.187 E0.5851
G1 X9.601 Y10.692 E0.6013
G1 X6.116 Y14.178 E0.7626
G1 X5.622 Y14.178 E0.7788
G1 X9.601 Y10.198 E0.9631
G1 X9.601 Y9.703 E0.9793
G1 X5.127 Y14.178 E1.1865
G1 X4.632 Y14.178 E1.2027
G1 X9.601 Y9.208 E1.4328
G1 X9.602 Y8.713 E1.4490
G1 X4.137 Y14.177 E1.7021
G1 X3.642 Y14.178 E1.7183
G1 X9.601 Y8.218 E1.9942
G1 X9.601 Y7.723 E2.0104
G1 X3.147 Y14.178 E2.3093
G1 X2.652 Y14.178 E2.3255
G1 X9.602 Y7.228 E2.6473
G1 X9.601 Y6.733 E2.6635
G1 X2.157 Y14.178 E3.0082
G1 X1.662 Y14.178 E3.0244
G1 X9.601 Y6.238 E3.3921
G1 X9.602 Y5.743 E3.4083
G1 X1.167 Y14.178 E3.7988
G1 X0.672 Y14.178 E3.8150
G1 X9.601 Y5.248 E4.2285
G1 X9.601 Y4.753 E4.2447
G1 X0.177 Y14.178 E4.6811
G1 X-0.318 Y14.178 E4.6973
G1 X9.601 Y4.258 E5.1566
G1 X9.601 Y3.763 E5.1728
G1 X-0.813 Y14.178 E5.6550
G1 X-1.308 Y14.178 E5.6712
G1 X9.601 Y3.268 E6.1763
G1 X9.601 Y2.773 E6.1926
G1 X-1.803 Y14.178 E6.7206
G1 X-2.298 Y14.177 E6.7368
G1 X9.602 Y2.278 E7.2878
G1 X9.602 Y1.783 E7.3040
G1 X-2.793 Y14.178 E7.8779
G1 X-3.288 Y14.178 E7.8941
G1 X9.602 Y1.288 E8.4909
G1 X9.602 Y0.793 E8.5071
G1 X-3.783 Y14.178 E9.1268
G1 X-4.278 Y14.178 E9.1430
G1 X9.601 Y0.298 E9.7857
G1 X9.601 Y-0.197 E9.8019
G1 X-4.773 Y14.178 E10.4675
G1 X-5.268 Y14.178 E10.4837
G1 X9.601 Y-0.692 E11.1721
G1 X9.601 Y-1.187 E11.1884
G1 X-5.763 Y14.178 E11.8998
G1 X-6.258 Y14.178 E11.9160
G1 X9.601 Y-1.682 E12.6503
G1 X9.601 Y-2.177 E12.6665
G1 X-6.603 Y14.028 E13.4168
G1 X-6.603 Y13.533 E13.4330
G1 X9.602 Y-2.672 E14.1833
G1 X9.601 Y-3.167 E14.1995
G1 X-6.603 Y13.038 E14.9499
G1 X-6.603 Y12.543 E14.9661
G1 X9.602 Y-3.662 E15.7164
G1 X9.601 Y-4.157 E15.7326
G1 X-6.603 Y12.048 E16.4829
G1 X-6.603 Y11.553 E16.4991
G1 X9.602 Y-4.652 E17.2495
G1 X9.602 Y-5.147 E17.2657
G1 X-6.603 Y11.058 E18.0160
G1 X-6.603 Y10.563 E18.0322
G1 X9.601 Y-5.642 E18.7825
G1 X9.602 Y-6.137 E18.7987
G1 X-6.603 Y10.068 E19.5490
G1 X-6.603 Y9.573 E19.5652
G1 X9.601 Y-6.632 E20.3156
G1 X9.601 Y-7.127 E20.3318
G1 X-6.603 Y9.078 E21.0821
G1 X-6.603 Y8.583 E21.0983
G1 X9.601 Y-7.622 E21.8486
G1 X9.601 Y-8.117 E21.8648
G1 X-6.603 Y8.088 E22.6152
G1 X-6.603 Y7.593 E22.6314
G1 X9.601 Y-8.612 E23.3817
G1 X9.601 Y-9.106 E23.3979
G1 X-6.603 Y7.099 E24.1482
G1 X-6.603 Y6.604 E24.1644
G1 X9.601 Y-9.601 E24.9147
G1 X9.601 Y-10.096 E24.9309
G1 X-6.603 Y6.109 E25.6813
G1 X-6.603 Y5.614 E25.6975
G1 X9.602 Y-10.591 E26.4478
G1 X9.602 Y-11.086 E26.4640
G1 X-6.603 Y5.119 E27.2143
G1 X-6.603 Y4.624 E27.2305
G1 X9.601 Y-11.581 E27.9809
G1 X9.602 Y-12.076 E27.9971
G1 X-6.603 Y4.129 E28.7474
G1 X-6.603 Y3.634 E28.7636
G1 X9.601 Y-12.571 E29.5139
G1 X9.601 Y-13.066 E29.5301
G1 X-6.603 Y3.139 E30.2804
G1 X-6.603 Y2.644 E30.2966
G1 X9.602 Y-13.561 E31.0470
G1 X9.601 Y-14.056 E31.0632
G1 X-6.603 Y2.149 E31.8135
G1 X-6.603 Y1.654 E31.8297
G1 X9.228 Y-14.177 E32.5627
G1 X8.733 Y-14.178 E32.5789
G1 X-6.603 Y1.159 E33.2890
G1 X-6.603 Y0.664 E33.3052
G1 X8.238 Y-14.178 E33.9924
G1 X7.743 Y-14.178 E34.0086
G1 X-6.603 Y0.169 E34.6729
G1 X-6.603 Y-0.326 E34.6891
G1 X7.248 Y-14.178 E35.3304
G1 X6.753 Y-14.178 E35.3467
G1 X-6.603 Y-0.821 E35.9651
G1 X-6.603 Y-1.316 E35.9813
G1 X6.258 Y-14.177 E36.5768
G1 X5.763 Y-14.177 E36.5930
G1 X-6.603 Y-1.811 E37.1656
G1 X-6.603 Y-2.306 E37.1818
G1 X5.268 Y-14.178 E37.7315
G1 X4.773 Y-14.177 E37.7477
G1 X-6.603 Y-2.801 E38.2744
G1 X-6.603 Y-3.296 E38.2906
G1 X4.278 Y-14.178 E38.7945
G1 X3.783 Y-14.177 E38.8107
G1 X-6.603 Y-3.791 E39.2916
G1 X-6.603 Y-4.286 E39.3078
G1 X3.288 Y-14.178 E39.7658
G1 X2.793 Y-14.178 E39.7820
G1 X-6.603 Y-4.781 E40.2171
G1 X-6.603 Y-5.276 E40.2333
G1 X2.298 Y-14.178 E40.6455
G1 X1.803 Y-14.177 E40.6617
G1 X-6.603 Y-5.771 E41.0509
G1 X-6.603 Y-6.266 E41.0671
G1 X1.308 Y-14.177 E41.4334
G1 X0.813 Y-14.178 E41.4496
G1 X-6.603 Y-6.761 E41.7931
G1 X-6.603 Y-7.256 E41.8093
G1 X0.318 Y-14.178 E42.1297
G1 X-0.177 Y-14.177 E42.1460
G1 X-6.603 Y-7.751 E42.4435
G1 X-6.603 Y-8.246 E42.4597
G1 X-0.672 Y-14.178 E42.7344
G1 X-1.167 Y-14.178 E42.7506
G1 X-6.603 Y-8.741 E43.0023
G1 X-6.603 Y-9.236 E43.0185
G1 X-1.662 Y-14.177 E43.2473
G1 X-2.157 Y-14.178 E43.2636
G1 X-6.603 Y-9.731 E43.4695
G1 X-6.603 Y-10.226 E43.4857
G1 X-2.652 Y-14.177 E43.6686
G1 X-3.147 Y-14.177 E43.6848
G1 X-6.603 Y-10.721 E43.8449
G1 X-6.603 Y-11.216 E43.8611
G1 X-3.642 Y-14.178 E43.9983
G1 X-4.137 Y-14.178 E44.0145
G1 X-6.603 Y-11.711 E44.1287
G1 X-6.603 Y-12.206 E44.1449
G1 X-4.632 Y-14.177 E44.2362
G1 X-5.126 Y-14.178 E44.2524
G1 X-6.603 Y-12.700 E44.3208
G1 X-6.603 Y-13.195 E44.3370
G1 X-5.621 Y-14.178 E44.3825
G1 X-6.116 Y-14.177 E44.3987
G1 X-6.603 Y-13.690 E44.4212
G92 E0
G1 E-8.4000 F3600
G1 Z0.325 F1000
; support
G1 X-10.185 Y-5.833 F4800
G1 Z0.225 F1000
G1 E-0.1000 F3600
G92 E0
G1 X-7.901 Y-5.833 E0.0748 F1440
G1 X-7.901 Y-4.667 E0.1130
G1 X-10.185 Y-4.667 E0.1878
G1 X-10.185 Y-3.500 E0.2260
G1 X-7.901 Y-3.500 E0.3007
G92 E0
G1 E-8.4000 F3600
G1 Z0.325 F1000
G1 X-10.185 Y3.500 F4800
G1 Z0.225 F1000
G1 E-0.1000 F3600
G92 E0
G1 X-7.901 Y3.500 E0.0748 F1440
G1 X-7.901 Y4.667 E0.1130
G1 X-10.185 Y4.667 E0.1878
G1 X-10.185 Y5.833 E0.2260
G1 X-7.901 Y5.833 E0.3007
G92 E0
G1 E-8.4000 F3600
G1 Z0.575 F1000
; layer 2, Z = 0.475
M106 S255
; inner perimeter
G1 X-6.901 Y1.363 F4800
G1 Z0.475 F1000
G1 E-0.1000 F3600
G92 E0
G1 X-9.899 Y1.363 E0.0982 F2700
G1 X-9.899 Y-1.363 E0.1874
G1 X-6.901 Y-1.363 E0.2856
G1 X-6.901 Y-14.475 E0.7149
G1 X9.899 Y-14.475 E1.2649
G1 X9.899 Y14.475 E2.2127
G1 X-6.901 Y14.475 E2.7628
G1 X-6.901 Y1.363 E3.1921
; outer perimeter
G1 X-7.251 Y1.713 F4800
G92 E0
G1 X-10.249 Y1.713 E0.0982 F1800
G1 X-10.249 Y-1.713 E0.2104
G1 X-7.251 Y-1.713 E0.3085
G1 X-7.251 Y-14.825 E0.7378
G1 X10.249 Y-14.825 E1.3107
G1 X10.249 Y14.825 E2.2815
G1 X-7.251 Y14.825 E2.8545
G1 X-7.251 Y1.713 E3.2837
; solid layer
G1 X-6.603 Y1.316 F4800
G92 E0
G1 X6.258 Y14.177 E0.5955 F2880
G1 X5.763 Y14.178 E0.6117
G1 X-6.603 Y1.811 E1.1843
G1 X-6.603 Y2.306 E1.2005
G1 X5.268 Y14.177 E1.7502
G1 X4.773 Y14.178 E1.7664
G1 X-6.603 Y2.801 E2.2931
G1 X-6.603 Y3.296 E2.3093
G1 X4.278 Y14.177 E2.8132
G1 X3.783 Y14.177 E2.8294
G1 X-6.603 Y3.791 E3.3103
G1 X-6.603 Y4.286 E3.3265
G1 X3.288 Y14.177 E3.7845
G1 X2.793 Y14.177 E3.8007
G1 X-6.603 Y4.781 E4.2358
G1 X-6.603 Y5.276 E4.2520
G1 X2.298 Y14.177 E4.6642
G1 X1.803 Y14.177 E4.6804
G1 X-6.603 Y5.771 E5.0696
G1 X-6.603 Y6.266 E5.0858
G1 X1.308 Y14.178 E5.4521
G1 X0.813 Y14.178 E5.4683
G1 X-6.603 Y6.761 E5.8118
G1 X-6.603 Y7.256 E5.8280
G1 X0.318 Y14.178 E6.1485
G1 X-0.177 Y14.178 E6.1647
G1 X-6.603 Y7.751 E6.4622
G1 X-6.603 Y8.246 E6.4784
G1 X-0.672 Y14.177 E6.7531
G1 X-1.167 Y14.177 E6.7693
G1 X-6.603 Y8.741 E7.0210
G1 X-6.603 Y9.236 E7.0372
G1 X-1.662 Y14.178 E7.2660
G1 X-2.157 Y14.177 E7.2823
G1 X-6.603 Y9.731 E7.4881
G1 X-6.603 Y10.226 E7.5044
G1 X-2.652 Y14.177 E7.6873
G1 X-3.147 Y14.177 E7.7035
G1 X-6.603 Y10.721 E7.8636
G1 X-6.603 Y11.216 E7.8798
G1 X-3.642 Y14.178 E8.0169
G1 X-4.137 Y14.177 E8.0332
G1 X-6.603 Y11.711 E8.1474
G1 X-6.603 Y12.206 E8.1636
G1 X-4.632 Y14.177 E8.2549
G1 X-5.127 Y14.178 E8.2711
G1 X-6.603 Y12.701 E8.3395
G1 X-6.603 Y13.195 E8.3557
G1 X-5.621 Y14.178 E8.4012
G1 X-6.116 Y14.178 E8.4174
G1 X-6.603 Y13.690 E8.4399
G92 E0
G1 E-8.4000 F3600
G1 Z0.575 F1000
G1 X-9.601 Y0.793 F4800
G1 Z0.475 F1000
G1 E-0.1000 F3600
G92 E0
G1 X-9.328 Y1.066 E0.0126 F2880
G1 X-8.834 Y1.066 E0.0288
G1 X-9.601 Y0.298 E0.0644
G1 X-9.601 Y-0.197 E0.0806
G1 X-8.339 Y1.066 E0.1391
G1 X-7.844 Y1.066 E0.1553
G1 X-9.601 Y-0.692 E0.2367
G1 X-9.601 Y-1.066 E0.2489
G1 X-9.481 Y-1.066 E0.2529
G1 X-7.349 Y1.066 E0.3516
G1 X-6.854 Y1.066 E0.3678
G1 X-8.986 Y-1.066 E0.4665
G1 X-8.491 Y-1.066 E0.4827
G1 X6.753 Y14.177 E1.1885
G1 X7.248 Y14.177 E1.2047
G1 X-7.996 Y-1.066 E1.9105
G1 X-7.501 Y-1.066 E1.9267
G1 X7.743 Y14.178 E2.6325
G1 X8.238 Y14.178 E2.6488
G1 X-7.006 Y-1.066 E3.3546
G1 X-6.603 Y-1.066 E3.3677
G1 X-6.603 Y-1.159 E3.3708
G1 X8.733 Y14.177 E4.0809
G1 X9.228 Y14.178 E4.0971
G1 X-6.603 Y-1.654 E4.8301
G1 X-6.603 Y-2.149 E4.8463
G1 X9.601 Y14.056 E5.5966
G1 X9.601 Y13.561 E5.6128
G1 X-6.603 Y-2.644 E6.3631
G1 X-6.603 Y-3.139 E6.3793
G1 X9.601 Y13.066 E7.1297
G1 X9.601 Y12.571 E7.1459
G1 X-6.603 Y-3.634 E7.8962
G1 X-6.603 Y-4.129 E7.9124
G1 X9.602 Y12.076 E8.6627
G1 X9.601 Y11.581 E8.6789
G1 X-6.603 Y-4.624 E9.4293
G1 X-6.603 Y-5.119 E9.4455
G1 X9.602 Y11.086 E10.1958
G1 X9.602 Y10.591 E10.2120
G1 X-6.603 Y-5.614 E10.9623
G1 X-6.603 Y-6.109 E10.9785
G1 X9.601 Y10.096 E11.7288
G1 X9.602 Y9.601 E11.7451
G1 X-6.603 Y-6.604 E12.4954
G1 X-6.603 Y-7.098 E12.5116
G1 X9.601 Y9.107 E13.2619
G1 X9.601 Y8.612 E13.2781
G1 X-6.603 Y-7.593 E14.0284
G1 X-6.603 Y-8.088 E14.0446
